!!!!SEGMENT: pl-cz--iii-553--001-001_raszek-waclaw--missa-in-f-kyrie.krn
!!!cenid: 18xx:994
!!!COM: Raszek, Wacław
!!!COM-rismID: pe30020314
!!!CDT: <1848->1848
!!!CNT:
!!!OPR: Missa in F
!!!OTL: Kyrie
!!!OMV: 001
!!!PDT: 1829
!!!AGN: Sacred; Mass
!!!SMS-siglum: PL-CZ
!!!SMS-shelfmark: III-553
!!!SMS-shelfwork: 001-001 M
!!!SMS-variant:
!!!SMS-altvar:
!!!NIFC-rismSourceID: 300001048
!!!NIFC-islandoraID: pl-cz:38806
!!!URL-pdf-islandora: https://repozytorium.nifc.pl/islandora/object/pl-cz%3A38806/datastream/PDF/view
!!!URL-scan:
!!!ONB-nifc: UWAGA: części Mszy: Kyrie, Gloria, Credo, Et incarnatus, Et resurrexit, Sanctus, Pleni sunt, Benedictus, Agnus Dei, Dona nobis
!!!AIN: 1 alto 1 bass 2 clars 2 cor 1 organ 1 soprn 1 tenor 1 viola 2 violn
!!!key: F
**kern	**fba	**kern	**dynam	**kern	**dynam	**kern	**dynam	**kern	**text	**dynam	**kern	**text	**dynam	**kern	**text	**dynam	**kern	**text	**kern	**dynam	**kern	**dynam	**kern	**dynam	**kern	**dynam
*	*	*group4	*	*group4	*	*group4	*	*group3	*	*	*group3	*	*	*group3	*	*	*group3	*	*group2	*	*group2	*	*group1	*	*group1	*
*part12	*part12	*part11	*part11	*part10	*part10	*part9	*part9	*part8	*part8	*part8	*part7	*part7	*part7	*part6	*part6	*part6	*part5	*part5	*part4	*part4	*part3	*part3	*part2	*part2	*part1	*part1
*staff12	*	*staff11	*	*staff10	*	*staff9	*	*staff8	*staff8	*	*staff7	*staff7	*	*staff6	*staff6	*	*staff5	*staff5	*staff4	*	*staff3	*	*staff2	*	*staff1	*
*I"Organo.	*	*I"Alto Viola	*	*I"Violino Secondo.	*	*I"Violino Primo.	*	*I"Basso.	*	*	*I"Tenore.	*	*	*I"Alto.	*	*	*I"Canto.	*	*I"Corno Secondo in F.	*	*I"Corno Primo in F.	*	*I"Clarinetto Secondo in B.	*	*I"Clarinetto Primo. in B.	*
*I'org	*	*I'a-vla	*	*I'vl 2	*	*I'vl 1	*	*I'B	*	*	*I'T	*	*	*I'A	*	*	*I'S	*	*I'cor 2 in F	*	*I'cor 1 in F	*	*I'cl 2 in B	*	*I'cl 1 in B	*
*Iorgan	*	*Iviola	*	*Ivioln	*	*Ivioln	*	*Ibass	*	*	*Itenor	*	*	*Ialto	*	*	*Isoprn	*	*Icor	*	*Icor	*	*Iclars	*	*Iclars	*
*ICklav	*	*ICstr	*	*ICstr	*	*ICstr	*	*ICvox	*	*	*ICvox	*	*	*ICvox	*	*	*ICvox	*	*ICbras	*	*ICbras	*	*ICww	*	*ICww	*
*IGcont	*	*	*	*	*	*	*	*IGcoro	*	*	*IGcoro	*	*	*IGcoro	*	*	*IGcoro	*	*	*	*	*	*	*	*	*
*clefF4	*	*clefC3	*	*clefG2	*	*clefG2	*	*clefF4	*	*	*clefC4	*	*	*clefC3	*	*	*clefC1	*	*clefG2	*	*clefG2	*	*clefG2	*	*clefG2	*
*	*	*	*	*	*	*	*	*	*	*	*	*	*	*	*	*	*	*	*ITrd4c7	*	*ITrd4c7	*	*ITrd1c2	*	*ITrd1c2	*
*k[b-]	*	*k[b-]	*	*k[b-]	*	*k[b-]	*	*k[b-]	*	*	*k[b-]	*	*	*k[b-]	*	*	*k[b-]	*	*k[b-]	*	*k[b-]	*	*k[b-]	*	*k[b-]	*
*F:	*	*F:	*	*F:	*	*F:	*	*F:	*	*	*F:	*	*	*F:	*	*	*F:	*	*F:	*	*F:	*	*F:	*	*F:	*
*M4/4	*	*M4/4	*	*M4/4	*	*M4/4	*	*M4/4	*	*	*M4/4	*	*	*M4/4	*	*	*M4/4	*	*M4/4	*	*M4/4	*	*M4/4	*	*M4/4	*
*met(c)	*	*met(c)	*	*met(c)	*	*met(c)	*	*met(c)	*	*	*met(c)	*	*	*met(c)	*	*	*met(c)	*	*met(c)	*	*met(c)	*	*met(c)	*	*met(c)	*
=1	=1	=1	=1	=1	=1	=1	=1	=1	=1	=1	=1	=1	=1	=1	=1	=1	=1	=1	=1	=1	=1	=1	=1	=1	=1	=1
!LO:TX:a:i:t=Solo.	!	!	!	!	!	!	!	!LO:TX:a:t=6.	!	!	!LO:TX:a:t=6.	!	!	!LO:TX:b:t=6	!	!	!LO:TX:a:t=6.	!	!	!	!	!	!	!	!	!
!LO:TX:a:B:t=Molto moderato.	!	!LO:TX:a:B:t=Moderato.	!	!	!	!LO:TX:a:B:t=Moderato.	!LO:DY:a:rj	!LO:TX:a:B:t=Moderato	!	!	!LO:TX:a:B:t=Moderato.	!	!	!LO:TX:a:B:t=Moderato.	!	!	!LO:TX:a:B:t=Moderato	!	!LO:TX:a:B:t=Moderato.	!	!LO:TX:a:B:t=Moderato.	!	!LO:TX:a:B:t=Moderato.	!	!LO:TX:a:B:t=Moderato.	!
8F\L	.	8fL 8c\	f	8ffL 8a|\	.	8ffL 8a\	f	00r	.	.	00r	.	.	00r	.	.	00r	.	8A/L	f	8f\L	.	8a\L	f	8ff\L	f
8F\	.	8f 8c\	.	8ff 8a\	.	8ff 8a\	.	.	.	.	.	.	.	.	.	.	.	.	8A/	.	8f\	.	8a\	.	8ff\	.
8C\	.	8f 8c\	.	8ff 8a\	.	8ff 8a\	.	.	.	.	.	.	.	.	.	.	.	.	8A/	.	8f\	f	8a\	.	8ff\	.
8AA\J	.	8fJ 8c\	.	8ffJ 8a\	.	8ffJ 8a\	.	.	.	.	.	.	.	.	.	.	.	.	8A/J	.	8f\J	.	8a\J	.	8ff\J	.
4FF/	.	4f 4c\	.	4ff 4a\	.	8ffL 8a\	.	.	.	.	.	.	.	.	.	.	.	.	4A/	.	4f\	.	4a\	.	4ff\	.
.	.	.	.	.	.	32qqgg/LLL	.	.	.	.	.	.	.	.	.	.	.	.	.	.	.	.	.	.	.	.
.	.	.	.	.	.	32qqff/	.	.	.	.	.	.	.	.	.	.	.	.	.	.	.	.	.	.	.	.
.	.	.	.	.	.	32qqee/JJJ	.	.	.	.	.	.	.	.	.	.	.	.	.	.	.	.	.	.	.	.
!	!	!	!	!	!	!	!LO:DY:t=p.	!	!	!	!	!	!	!	!	!	!	!	!	!	!	!	!	!	!	!
.	.	.	.	.	.	16.ff\L	p	.	.	.	.	.	.	.	.	.	.	.	.	.	.	.	.	.	.	.
.	.	.	.	.	.	32gg\JJk	.	.	.	.	.	.	.	.	.	.	.	.	.	.	.	.	.	.	.	.
4r	.	4r	.	4r	.	16aa\LL	.	.	.	.	.	.	.	.	.	.	.	.	4r	.	4r	.	4r	.	4r	.
.	.	.	.	.	.	16ee\	.	.	.	.	.	.	.	.	.	.	.	.	.	.	.	.	.	.	.	.
.	.	.	.	.	.	16ff\	.	.	.	.	.	.	.	.	.	.	.	.	.	.	.	.	.	.	.	.
.	.	.	.	.	.	16dd\JJ	.	.	.	.	.	.	.	.	.	.	.	.	.	.	.	.	.	.	.	.
=2	=2	=2	=2	=2	=2	=2	=2	=2	=2	=2	=2	=2	=2	=2	=2	=2	=2	=2	=2	=2	=2	=2	=2	=2	=2	=2
8E\L	6_ 5_	8eL 8c\	.	8b-L 8g\	.	8cc\L	.	.	.	.	.	.	.	.	.	.	.	.	8c/L	.	8g\L	.	8b-\L	.	8gg\L	.
!	!	!	!	!	!	!	!LO:DY:a	!	!	!	!	!	!	!	!	!	!	!	!	!	!	!	!	!	!	!
8E\	.	8e 8c\	.	8b- 8g\	.	8cc 8g\	f	.	.	.	.	.	.	.	.	.	.	.	8c/	.	8g\	.	8b-\	.	8gg\	.
8E\	.	8e 8c\	.	8b- 8g\	.	8cc 8g\	.	.	.	.	.	.	.	.	.	.	.	.	8c/	.	8g\	.	8b-\	.	8gg\	.
8E\J	.	8eJ 8c\	.	8b-J 8g\	.	8ccJ 8g\	.	.	.	.	.	.	.	.	.	.	.	.	8c/J	.	8g\J	.	8b-\J	.	8gg\J	.
.	.	.	.	.	.	32qqG/LLL	.	.	.	.	.	.	.	.	.	.	.	.	.	.	.	.	.	.	.	.
.	.	.	.	.	.	32qqe/	.	.	.	.	.	.	.	.	.	.	.	.	.	.	.	.	.	.	.	.
.	.	.	.	.	.	32qqcc/JJJ	.	.	.	.	.	.	.	.	.	.	.	.	.	.	.	.	.	.	.	.
!	!	!	!	!	!	!	!LO:DY:t=rf	!	!	!	!	!	!	!	!	!	!	!	!	!	!	!	!	!	!	!
4C/	7 5	4e 4c\	.	4b- 4g\	.	8.bb-\L	rf	.	.	.	.	.	.	.	.	.	.	.	4c/	.	4g\	.	4ee\	.	4bb-\	.
.	.	.	.	.	.	32gg\LL	.	.	.	.	.	.	.	.	.	.	.	.	.	.	.	.	.	.	.	.
.	.	.	.	.	.	32ee\JJJ	.	.	.	.	.	.	.	.	.	.	.	.	.	.	.	.	.	.	.	.
4r	.	4r	.	4r	.	(16cc\LL	.	.	.	.	.	.	.	.	.	.	.	.	4r	.	4r	.	4r	.	4r	.
.	.	.	.	.	.	16cc#X\	.	.	.	.	.	.	.	.	.	.	.	.	.	.	.	.	.	.	.	.
.	.	.	.	.	.	16dd\	.	.	.	.	.	.	.	.	.	.	.	.	.	.	.	.	.	.	.	.
.	.	.	.	.	.	16b-\JJ)	.	.	.	.	.	.	.	.	.	.	.	.	.	.	.	.	.	.	.	.
!	!	!	!	!	!	!LO:LB:g=original	!	!	!	!	!	!	!	!	!	!	!	!	!	!	!	!	!	!	!	!
=3	=3	=3	=3	=3	=3	=3	=3	=3	=3	=3	=3	=3	=3	=3	=3	=3	=3	=3	=3	=3	=3	=3	=3	=3	=3	=3
*	*	*	*	*	*	*	*	*	*	*	*	*	*	*	*	*	*	*	*	*	*2\right	*	*	*	*	*
8F\L	.	8e-XL 8c\	.	8aL 8f\	.	(16a\LL	.	.	.	.	.	.	.	.	.	.	.	.	2F/	.	[2f\	.	8cc\L	.	(8aa\L	.
.	.	.	.	.	.	16ff\)	.	.	.	.	.	.	.	.	.	.	.	.	.	.	.	.	.	.	.	.
8F\	.	8e- 8c\	.	8a 8f\	.	16a|\	.	.	.	.	.	.	.	.	.	.	.	.	.	.	.	.	8a\J	.	8ff\J)	.
.	.	.	.	.	.	16a|\JJ	.	.	.	.	.	.	.	.	.	.	.	.	.	.	.	.	.	.	.	.
8E-X\	4_ 2_	8e- 8c\	.	8a 8f\	.	16a/LL	.	.	.	.	.	.	.	.	.	.	.	.	.	.	.	.	8r	.	8r	.
.	.	.	.	.	.	16a/	.	.	.	.	.	.	.	.	.	.	.	.	.	.	.	.	.	.	.	.
8E-\J	.	8e-J 8c\	.	8aJ 8f\	.	16.at/	.	.	.	.	.	.	.	.	.	.	.	.	.	.	.	.	8dd\	.	8aa\	.
!	!	!	!	!	!	!LO:N:vis=32	!	!	!	!	!	!	!	!	!	!	!	!	!	!	!	!	!	!	!	!
.	.	.	.	.	.	64g/LL	.	.	.	.	.	.	.	.	.	.	.	.	.	.	.	.	.	.	.	.
!	!	!	!	!	!	!LO:N:vis=32	!	!	!	!	!	!	!	!	!	!	!	!	!	!	!	!	!	!	!	!
.	.	.	.	.	.	64a/JJJJ	.	.	.	.	.	.	.	.	.	.	.	.	.	.	.	.	.	.	.	.
!LO:TX:t=P:problem=mixed beam	!	!	!	!	!	!	!	!	!	!	!	!	!	!	!	!	!	!	!	!	!	!	!	!	!	!
8D\L	6_	8dL 8B-\	.	8b-L 8f\	.	(16b-\LL	.	.	.	.	.	.	.	.	.	.	.	.	4F/	.	4f\]	.	8ff\L	.	(8bb-\L	.
.	.	.	.	.	.	16ff\)	.	.	.	.	.	.	.	.	.	.	.	.	.	.	.	.	.	.	.	.
8D\	.	8dJ 8B-\	.	8b-J 8f\	.	16b-|\	.	.	.	.	.	.	.	.	.	.	.	.	.	.	.	.	8cc\J	.	8ff\J)	.
.	.	.	.	.	.	16b-|\JJ	.	.	.	.	.	.	.	.	.	.	.	.	.	.	.	.	.	.	.	.
8GG/	n_	(16G/LL	.	8bnL 8d\	.	(16bn\LL	.	.	.	.	.	.	.	.	.	.	.	.	8r	.	8r	.	8r	.	8r	.
.	.	16d/)	.	.	.	16ff\)	.	.	.	.	.	.	.	.	.	.	.	.	.	.	.	.	.	.	.	.
8G\J	.	16d|/	.	8bJ 8d\	.	16ff|\	.	.	.	.	.	.	.	.	.	.	.	.	8g\	.	8g\	.	8dd\	.	8ff\	.
.	.	16d|/JJ	.	.	.	16ff|\JJ	.	.	.	.	.	.	.	.	.	.	.	.	.	.	.	.	.	.	.	.
!LO:LB:g=original	!	!LO:LB:g=original	!	!LO:LB:g=original	!	!	!	!	!	!	!	!	!	!	!	!	!	!	!	!	!	!	!LO:LB:g=original	!	!	!
=4	=4	=4	=4	=4	=4	=4	=4	=4	=4	=4	=4	=4	=4	=4	=4	=4	=4	=4	=4	=4	=4	=4	=4	=4	=4	=4
8C/L	x	(16c\LL	.	8ccL 8e\	.	(16ee\LL	.	.	.	.	.	.	.	.	.	.	.	.	4c/	.	4g\	.	8cc\L	.	8ee\L	.
.	.	16f\)	.	.	.	16gg\)	.	.	.	.	.	.	.	.	.	.	.	.	.	.	.	.	.	.	.	.
8C/	.	16e|\	.	8cc 8e\	.	16gg|\	.	.	.	.	.	.	.	.	.	.	.	.	.	.	.	.	8ee\	.	8gg\J	.
.	.	16e|\JJ	.	.	.	16gg|\JJ	.	.	.	.	.	.	.	.	.	.	.	.	.	.	.	.	.	.	.	.
8E/	6 5	8eL 8c\	.	8b-X 8g\	.	(16cc\LL	.	.	.	.	.	.	.	.	.	.	.	.	8c/L	.	8g\L	.	8cc\	.	8cc\L	.
.	.	.	.	.	.	16bb-\)	.	.	.	.	.	.	.	.	.	.	.	.	.	.	.	.	.	.	.	.
8E/J	.	8eJ 8c\	.	8b-J 8g\	.	16bb-|\	.	.	.	.	.	.	.	.	.	.	.	.	8c/J	.	8g\J	.	8gg\J	.	8bb-\J	.
.	.	.	.	.	.	16bb-|\JJ	.	.	.	.	.	.	.	.	.	.	.	.	.	.	.	.	.	.	.	.
*	*	*	*	*	*	*	*	*	*	*	*	*	*	*	*	*	*	*	*	*	*custos	*	*	*	*custos	*
!	!	!	!	!	!	!	!	!	!	!	!	!	!	!	!	!	!	!	!	!	!	!	!	!	!LO:LB:g=original	!
!	!	!	!	!	!	!	!	!	!	!	!	!	!	!	!	!	!	!	!	!	!	!	!	!	!LO:TX:t=P:global:problem=wszystkie custos użyte jako łamanie pięciolinii	!
8F\L	.	8fL 8c\	.	8aL 8f\	.	(16gg#X\LL	.	.	.	.	.	.	.	.	.	.	.	.	4f\	.	4a\	.	4cc\	.	4aa\	.
.	.	.	.	.	.	16aa\)	.	.	.	.	.	.	.	.	.	.	.	.	.	.	.	.	.	.	.	.
8C\	6 4	8fJ 8c\	.	8a 8f\	.	16aa|\	.	.	.	.	.	.	.	.	.	.	.	.	.	.	.	.	.	.	.	.
.	.	.	.	.	.	16aa|\JJ	.	.	.	.	.	.	.	.	.	.	.	.	.	.	.	.	.	.	.	.
!	!	!	!	!	!	!	!	!	!	!	!	!	!	!	!	!	!	!	!	!	!LO:LB:g=original	!	!	!	!	!
8C\	n7_ 2_	8dL 8G\	.	8bn 8f\	.	(16ccc\LL	.	.	.	.	.	.	.	.	.	.	.	.	8g\L	.	8g\L	.	4bX\	.	8ff\L	.
.	.	.	.	.	.	16bbn\)	.	.	.	.	.	.	.	.	.	.	.	.	.	.	.	.	.	.	.	.
8C\J	.	8dJ 8G\	.	8bJ 8f\	.	16bb|\	.	.	.	.	.	.	.	.	.	.	.	.	8g\J	.	8g\J	.	.	.	8ff\J	.
.	.	.	.	.	.	16bb|\JJ	.	.	.	.	.	.	.	.	.	.	.	.	.	.	.	.	.	.	.	.
!	!	!	!	!	!	!	!	!	!	!	!	!	!	!	!	!	!	!	!LO:LB:g=original	!	!	!	!	!	!	!
=5	=5	=5	=5	=5	=5	=5	=5	=5	=5	=5	=5	=5	=5	=5	=5	=5	=5	=5	=5	=5	=5	=5	=5	=5	=5	=5
*	*	*	*	*	*	*	*	*	*	*	*	*	*	*	*	*	*	*	*tremolo	*	*tremolo	*	*	*	*	*
8C/L	8_ 3_	(16c\LL	.	(16ccLL 16e/	.	(16ccc\LL	.	0r	.	.	0r	.	.	0r	.	.	0r	.	8c/L	.	8g\L	.	4cc\	.	4ee\	.
.	.	16d#X\	.	16f#X/	.	16ff#X\	.	.	.	.	.	.	.	.	.	.	.	.	.	.	.	.	.	.	.	.
8C/	.	16e\	.	16g/)	.	16gg\	.	.	.	.	.	.	.	.	.	.	.	.	8c/	.	8g\	.	.	.	.	.
.	.	16f#X\JJ)	.	16d#X/JJ	.	16dd#X\JJ)	.	.	.	.	.	.	.	.	.	.	.	.	.	.	.	.	.	.	.	.
8C/	.	8g\L	.	8e/L	.	(16ee\LL	.	.	.	.	.	.	.	.	.	.	.	.	8c/	.	8g\	.	8cc\L	.	8ee\L	.
.	.	.	.	.	.	16bn\	.	.	.	.	.	.	.	.	.	.	.	.	.	.	.	.	.	.	.	.
8C/J	.	8eJ 8c\	.	8eJ 8G/	.	16cc\	.	.	.	.	.	.	.	.	.	.	.	.	8c/J	.	8g\J	.	8cc\J	.	8ee\J	.
.	.	.	.	.	.	16g\JJ)	.	.	.	.	.	.	.	.	.	.	.	.	.	.	.	.	.	.	.	.
*	*	*	*	*	*	*	*	*	*	*	*	*	*	*	*	*	*	*	*2\right	*	*	*	*	*	*	*
!	!	!	!	!LO:SIC:v:n=1:s=8fnJ	!	!LO:LB:g=original	!	!	!	!	!	!	!	!	!	!	!	!	!	!	!	!	!	!	!	!
8C/L	n7_ 4_ 2_	8d#L 8Bn\	.	8f#L 8G/	.	16ffn|\LL	.	.	.	.	.	.	.	.	.	.	.	.	8g\L	.	8g\L	.	4dd\	.	4ff\	.
.	.	.	.	.	.	(16cc#X\	.	.	.	.	.	.	.	.	.	.	.	.	.	.	.	.	.	.	.	.
!	!	!	!	!LO:SIC:v:n=1:s=8fnJ	!	!LO:SIC:v:s=16ddn	!	!	!	!	!	!	!	!	!	!	!	!	!	!	!	!	!	!	!	!
8C/	.	8d#J 8B\	.	8f# 8G/	.	16dd#\)	.	.	.	.	.	.	.	.	.	.	.	.	8g\	.	8g\	.	.	.	.	.
.	.	.	.	.	.	(16a#X\JJ	.	.	.	.	.	.	.	.	.	.	.	.	.	.	.	.	.	.	.	.
!	!	!	!	!LO:SIC:v:n=1:s=8fnJ	!	!	!	!	!	!	!	!	!	!	!	!	!	!	!	!	!	!	!	!	!	!
8C/	.	8d#L 8B\	.	8f# 8G/	.	16bn/LL)	.	.	.	.	.	.	.	.	.	.	.	.	8g\	.	8g\	.	8dd\L	.	8ff\L	.
.	.	.	.	.	.	(16f#X/	.	.	.	.	.	.	.	.	.	.	.	.	.	.	.	.	.	.	.	.
!	!	!	!	!LO:SIC:v:n=1:s=8fnJ	!	!	!	!	!	!	!	!	!	!	!	!	!	!	!	!	!	!	!	!	!	!
8C/J	.	8d#J 8B\	.	8f#J 8G/	.	16g/)	.	.	.	.	.	.	.	.	.	.	.	.	8g\J	.	8g\J	.	8dd\J	.	8ff\J	.
.	.	.	.	.	.	16fn|/JJ	.	.	.	.	.	.	.	.	.	.	.	.	.	.	.	.	.	.	.	.
*	*	*	*	*	*	*	*	*	*	*	*	*	*	*	*	*	*	*	*Xtremolo	*	*	*	*	*	*	*
=6	=6	=6	=6	=6	=6	=6	=6	=6	=6	=6	=6	=6	=6	=6	=6	=6	=6	=6	=6	=6	=6	=6	=6	=6	=6	=6
!LO:TX:t=P:problem=mixed beam	!	!	!	!	!	!	!	!	!	!	!	!	!	!	!	!	!	!	!	!	!	!	!	!	!	!
8C/L	x	8c|\L	.	8eL 8G/	.	16e/LL	.	.	.	.	.	.	.	.	.	.	.	.	8c\L	.	8g\L	.	8cc\L	.	8ee\L	.
.	.	.	.	.	.	16cc/	.	.	.	.	.	.	.	.	.	.	.	.	.	.	.	.	.	.	.	.
8G\J	7 n	(16d\L	.	8f 8G/	.	16bn/	.	.	.	.	.	.	.	.	.	.	.	.	8g\	.	8g\	.	8bX\	.	8ff\	.
.	.	16Bn\JJ)	.	.	.	16f/JJ	.	.	.	.	.	.	.	.	.	.	.	.	.	.	.	.	.	.	.	.
8C/L	.	(16c\LL	.	8e 8G/	.	16e/LL	.	.	.	.	.	.	.	.	.	.	.	.	8c\	.	8g\	.	8cc\	.	8ee\	.
.	.	16e\	.	.	.	16cc/	.	.	.	.	.	.	.	.	.	.	.	.	.	.	.	.	.	.	.	.
8GG/J	7 n	16d\	.	8fJ 8G/	.	16bn/	.	.	.	.	.	.	.	.	.	.	.	.	8g\J	.	8g\J	.	8b\J	.	8ff\J	.
.	.	16B\JJ)	.	.	.	16ff/JJ	.	.	.	.	.	.	.	.	.	.	.	.	.	.	.	.	.	.	.	.
*	*	*	*	*	*	*	*	*	*	*	*	*	*	*	*	*	*	*	*	*	*Xtremolo	*	*	*	*	*
8C/L	.	8cL 8C/	.	8eL 8G/	.	8ee\L	.	.	.	.	.	.	.	.	.	.	.	.	8c/L	.	8g\L	.	8cc\L	.	8ee\L	.
8C/	.	8c 8C/	.	8e 8G/	.	8ccc 8ee 8g\	.	.	.	.	.	.	.	.	.	.	.	.	8c/J	.	8g\J	.	8cc\	.	8ee\	.
!	!	!	!	!	!	!	!	!	!	!	!	!	!	!	!	!	!	!	!	!	!LO:S:color=grey	!	!	!	!	!
8C/J	.	8cJ 8C/	.	8eJ 8G/	.	8cccJ 8ee 8g\	.	.	.	.	.	.	.	.	.	.	.	.	16c\LL	.	(16g\LL	.	8cc\J	.	8ee\J	.
.	.	.	.	.	.	.	.	.	.	.	.	.	.	.	.	.	.	.	16b-\	.	16b-\	.	.	.	.	.
8r	.	8r	.	8r	.	8r	.	.	.	.	.	.	.	.	.	.	.	.	16f\	.	16a\	.	8r	.	8r	.
.	.	.	.	.	.	.	.	.	.	.	.	.	.	.	.	.	.	.	16c\JJ	.	16g\JJ)	.	.	.	.	.
!	!	!LO:LB:g=original	!	!LO:LB:g=original	!	!	!	!	!	!	!	!	!	!	!	!	!	!	!	!	!	!	!	!	!	!
=7	=7	=7	=7	=7	=7	=7	=7	=7	=7	=7	=7	=7	=7	=7	=7	=7	=7	=7	=7	=7	=7	=7	=7	=7	=7	=7
*	*	*	*	*	*	*	*	*	*	*	*	*	*	*	*	*	*	*	*tremolo	*	*tremolo	*	*	*	*	*
!LO:TX:a:i:t=Tutti	!	!	!	!	!	!	!	!	!	!	!	!	!	!	!	!	!	!	!	!	!	!	!	!	!	!
!LO:TX:t=P:problem=mixed beam	!	!	!	!	!	!LO:TX:a:i:t=Tutti	!LO:DY:a	!LO:TX:a:i:t=Tutti	!	!LO:DY:a	!LO:TX:b:i:t=Tutti	!	!LO:DY:b	!LO:TX:a:i:t=Tutti	!	!LO:DY:a:rj	!LO:TX:a:i:t=Tutti.	!	!	!	!	!	!	!	!	!
8FF/L	5_ 3_	8fL 8c\	.	8aL 8f\	f	8ffL 8a\	f	4.F\	Ky-	f	4.c\	Ky-	f	4.a\	Ky-	f	4.ff\	Ky-	8A/L	f	8f\L	f	8a\L	.	8ff\L	.
8F\	.	8f 8c\	.	8a 8f\	.	8ff 8a\	.	.	.	.	.	.	.	.	.	.	.	.	8A/	.	8f\	.	8a\	.	8ff\	.
8C\	.	8f 8c\	.	8a 8f\	.	8ff 8a\	.	.	.	.	.	.	.	.	.	.	.	.	8A/	.	8f\	.	8a\	.	8ff\	.
8AA\J	.	8fJ 8c\	.	8aJ 8f\	.	8ffJ 8a\	.	8F\	-ri-	.	8c\	-ri-	.	8a\	-ri-	.	8ff\	-ri-	8A/J	.	8f\J	.	8a\J	.	8ff\J	.
*	*	*	*	*	*	*	*	*	*	*	*	*	*	*	*	*	*	*	*Xtremolo	*	*Xtremolo	*	*	*	*	*
4FF/	.	4f 4c\	.	4a 4f\	.	8ffL 8a\	.	4F\	-e	.	4c\	-e	.	4a\	-e	.	4ff\	-e	4A/	.	4f\	.	4a\	.	4ff\	.
.	.	.	.	.	.	32qqgg/LLL	.	.	.	.	.	.	.	.	.	.	.	.	.	.	.	.	.	.	.	.
.	.	.	.	.	.	32qqff/	.	.	.	.	.	.	.	.	.	.	.	.	.	.	.	.	.	.	.	.
.	.	.	.	.	.	32qqee/JJJ	.	.	.	.	.	.	.	.	.	.	.	.	.	.	.	.	.	.	.	.
.	.	.	.	.	.	16.ffT\L	.	.	.	.	.	.	.	.	.	.	.	.	.	.	.	.	.	.	.	.
.	.	.	.	.	.	32gg\JJk	.	.	.	.	.	.	.	.	.	.	.	.	.	.	.	.	.	.	.	.
4r	x	4r	.	4r	.	16aa\LL	.	4r	.	.	4r	.	.	4r	.	.	4r	.	4r	.	4r	.	4r	.	4r	.
.	.	.	.	.	.	16ee\	.	.	.	.	.	.	.	.	.	.	.	.	.	.	.	.	.	.	.	.
.	.	.	.	.	.	16ff\	.	.	.	.	.	.	.	.	.	.	.	.	.	.	.	.	.	.	.	.
.	.	.	.	.	.	16dd\JJ	.	.	.	.	.	.	.	.	.	.	.	.	.	.	.	.	.	.	.	.
=8	=8	=8	=8	=8	=8	=8	=8	=8	=8	=8	=8	=8	=8	=8	=8	=8	=8	=8	=8	=8	=8	=8	=8	=8	=8	=8
*	*	*	*	*	*	*	*	*	*	*	*	*	*	*	*	*	*	*	*tremolo	*	*tremolo	*	*	*	*	*
!LO:TX:t=P:problem=mixed beam	!	!	!	!	!	!LO:DY:a	!	!	!	!	!	!	!	!	!	!	!	!	!	!	!	!	!	!	!	!
8EE/L	6_ 5_	8c\L	.	8b-L 8g\	.	8ccL 8g\	f	4.E\	Ky-	.	4.B-\	Ky-	.	4.g\	Ky-	.	4.cc\	Ky-	8c/L	.	8g\L	.	8b-\L	.	8gg\L	.
8E\	.	8g 8B-\	.	8b- 8g\	.	8cc 8g\	.	.	.	.	.	.	.	.	.	.	.	.	8c/	.	8g\	.	8gg\	.	8bb-\	.
8E\	.	8e 8c\	.	8b- 8g\	.	8cc 8g\	.	.	.	.	.	.	.	.	.	.	.	.	8c/	.	8g\	.	8gg\	.	8bb-\	.
*	*	*	*	*	*	*	*	*	*	*	*	*	*	*	*	*	*	*	*	*	*	*	*custos	*	*	*
8E\J	.	8eJ 8c\	.	8b-J 8g\	.	8ccJ 8g\	.	8E\	-ri-	.	8B-\	-ri-	.	8g\	-ri-	.	8cc\	-ri-	8c/J	.	8g\J	.	8gg\J	.	8bb-\J	.
*	*	*	*	*	*	*	*	*	*	*	*	*	*	*	*	*	*	*	*Xtremolo	*	*Xtremolo	*	*	*	*	*
!	!	!	!	!	!	!LO:LB:g=original	!	!	!	!	!	!	!	!	!	!	!	!	!	!	!	!	!LO:LB:g=original	!	!	!
4E\	.	4e 4c\	.	4b- 4g\	.	16cc\LL	.	4E\	-e	.	4B-\	-e	.	4g\	-e	.	4cc\	-e	4c/	.	4g\	.	4gg\	.	4bb-\	.
.	.	.	.	.	.	32ee\L	.	.	.	.	.	.	.	.	.	.	.	.	.	.	.	.	.	.	.	.
.	.	.	.	.	.	32gg\J	.	.	.	.	.	.	.	.	.	.	.	.	.	.	.	.	.	.	.	.
!	!	!	!	!	!	!	!LO:DY:t=p.	!	!	!	!	!	!	!	!	!	!	!	!	!	!	!	!	!	!	!
.	.	.	.	.	.	16bb-\	p	.	.	.	.	.	.	.	.	.	.	.	.	.	.	.	.	.	.	.
.	.	.	.	.	.	16ff#X\JJ	.	.	.	.	.	.	.	.	.	.	.	.	.	.	.	.	.	.	.	.
8r	x	4r	.	4r	.	16gg\LL	.	4r	.	.	4r	.	.	4r	.	.	4r	.	4r	.	4r	.	4r	.	4r	.
.	.	.	.	.	.	16ee\	.	.	.	.	.	.	.	.	.	.	.	.	.	.	.	.	.	.	.	.
8C/	7 5	.	.	.	.	16cc\	.	.	.	.	.	.	.	.	.	.	.	.	.	.	.	.	.	.	.	.
.	.	.	.	.	.	16b-\JJ	.	.	.	.	.	.	.	.	.	.	.	.	.	.	.	.	.	.	.	.
!LO:LB:g=original	!	!	!	!	!	!	!	!	!	!	!	!	!	!	!	!	!	!	!	!	!	!	!	!	!LO:LB:g=original	!
=9	=9	=9	=9	=9	=9	=9	=9	=9	=9	=9	=9	=9	=9	=9	=9	=9	=9	=9	=9	=9	=9	=9	=9	=9	=9	=9
*	*	*	*	*tremolo	*	*	*	*	*	*	*	*	*	*	*	*	*	*	*	*	*	*	*	*	*	*
!LO:TX:t=P:problem=mixed beam	!	!LO:TX:t=P:problem=mixed beam	!	!	!	!	!	!	!	!	!	!	!	!LO:N:vis=4.	!	!	!	!	!	!	!	!	!	!	!	!
8FF/L	.	8F/L	.	16aLL 16f/	.	(16a\LL	f	8.F\	Ky-	.	8.c\	Ky-	.	8.f\	Ky-	.	8.a\	Ky-	4f\	.	4a\	.	8ff\L	.	8aa\L	.
.	.	.	.	16a 16f/	.	16ff\)	.	.	.	.	.	.	.	.	.	.	.	.	.	.	.	.	.	.	.	.
8F\	.	8f\J	.	16a 16f/	.	16ff|\	.	.	.	.	.	.	.	.	.	.	.	.	.	.	.	.	8cc\J	.	8ff\J	.
.	.	.	.	16a 16f/	.	16ff|\JJ	.	16F\	-ri-	.	16c\	-ri-	.	16f\	-ri-	.	16a\	-ri-	.	.	.	.	.	.	.	.
8E-X\	4_ 2_	8c\L	.	16a 16f/	.	16ff\LL	.	8E-X\	-e	.	8c\	-e	.	8f\	-e	.	8a\	-e	8f\L	.	8a\L	.	8a\L	.	8ff\L	.
.	.	.	.	16a 16f/	.	16ffsS\	.	.	.	.	.	.	.	.	.	.	.	.	.	.	.	.	.	.	.	.
8E-\J	.	8c\J	.	16a 16f/	.	16gg\	.	8E-\	e-	.	8c\	e-	.	8f\	e-	.	8a\	e-	8f\J	.	8a\J	.	16b-\L	.	16gg\L	.
.	.	.	.	16aJJ 16f/	.	16aa\JJ	.	.	.	.	.	.	.	.	.	.	.	.	.	.	.	.	16cc\JJ	.	16aa\JJ	.
*	*	*	*	*	*	*	*	*	*	*	*2\right	*	*	*2\right	*	*	*	*	*	*	*	*	*	*	*	*
!LO:TX:t=P:problem=mixed beam	!	!	!	!	!	!	!	!	!	!	!	!	!	!	!	!	!	!	!	!	!	!	!	!	!	!
8D\L	6_	8d\L	.	16b-LL 16f/	.	(16bb-\LL	.	(4D\	-ley-	.	2d\	-ley-	.	2f\	-ley-	.	(4a\	-ley-	4f\	.	4b-\	.	4ff\	.	4bb-\	.
.	.	.	.	16b- 16f/	.	16b-\)	.	.	.	.	.	.	.	.	.	.	.	.	.	.	.	.	.	.	.	.
8D\	.	8d\J	.	16b- 16f/	.	16bb-|\	.	.	.	.	.	.	.	.	.	.	.	.	.	.	.	.	.	.	.	.
.	.	.	.	16b-JJ 16f/	.	16bb-|\JJ	.	.	.	.	.	.	.	.	.	.	.	.	.	.	.	.	.	.	.	.
8GG/	7 n	8dL 8G\	.	16bnLL 16f/	.	(16bbn\LL	.	4G\)	.	.	.	.	.	.	.	.	4bn\)	.	8r	.	8r	.	8ff\L	.	4bbX\	.
.	.	.	.	16b 16f/	.	16bn\)	.	.	.	.	.	.	.	.	.	.	.	.	.	.	.	.	.	.	.	.
8G\J	.	8dJ 8G\	.	16b 16f/	.	16bb|\	.	.	.	.	.	.	.	.	.	.	.	.	8g\	.	8g\	.	8ff\J	.	.	.
.	.	.	.	16bJJ 16f/	.	16bb|\JJ	.	.	.	.	.	.	.	.	.	.	.	.	.	.	.	.	.	.	.	.
!	!	!	!	!	!	!	!	!LO:LB:g=original	!	!	!LO:LB:g=original	!	!	!LO:LB:g=original	!	!	!LO:LB:g=original	!	!LO:LB:g=original	!	!LO:LB:g=original	!	!	!	!	!
=10	=10	=10	=10	=10	=10	=10	=10	=10	=10	=10	=10	=10	=10	=10	=10	=10	=10	=10	=10	=10	=10	=10	=10	=10	=10	=10
8C\L	8_ 3_	8eL 8G\	.	16ccLL 16e/	.	(16ccc\LL	.	4C\	-son	.	4c\	-son	.	4e\	-son	.	4cc\	-son	4c/	.	4g\	.	4ee\	.	8ccc\L	.
.	.	.	.	16cc 16e/	.	16gg\)	.	.	.	.	.	.	.	.	.	.	.	.	.	.	.	.	.	.	.	.
8C\	.	8e 8G\	.	16cc 16e/	.	16gg|\	.	.	.	.	.	.	.	.	.	.	.	.	.	.	.	.	.	.	8gg\	.
.	.	.	.	16ccJJ 16e/	.	16gg|\JJ	.	.	.	.	.	.	.	.	.	.	.	.	.	.	.	.	.	.	.	.
8C\	6	8g 8c\	.	16b-XLL 16g/	.	(16bb-X\LL	.	4C\	e-	.	4e\	e-	.	4g\	e-	.	4b-X\	e-	8c/L	.	8g\L	.	8gg\L	.	8bb-X\	.
.	7_ 5_	.	.	16b- 16g/	.	16gg\)	.	.	.	.	.	.	.	.	.	.	.	.	.	.	.	.	.	.	.	.
8C\J	.	8gJ 8c\	.	16b- 16g/	.	16gg|\	.	.	.	.	.	.	.	.	.	.	.	.	8c/J	.	8g\J	.	8ee\J	.	8gg\J	.
.	.	.	.	16b-JJ 16g/	.	16gg|\JJ	.	.	.	.	.	.	.	.	.	.	.	.	.	.	.	.	.	.	.	.
*	*	*	*	*	*	*	*	*2\right	*	*	*	*	*	*	*	*	*	*	*	*	*	*	*	*	*	*
8C\L	6_ 4_	8fL 8c\	.	16aLL 16f/	.	(16gg#X\LL	.	2C\	-ley-	.	(4f\	-ley-	.	2f\	-ley-	.	(4a\	-ley-	4f\	.	4a\	.	4ff\	.	4aa\	.
.	.	.	.	16a 16f/	.	16aa\)	.	.	.	.	.	.	.	.	.	.	.	.	.	.	.	.	.	.	.	.
8C\	.	8f 8c\	.	16a 16f/	.	16aa|\	.	.	.	.	.	.	.	.	.	.	.	.	.	.	.	.	.	.	.	.
.	.	.	.	16aJJ 16f/	.	16aa|\JJ	.	.	.	.	.	.	.	.	.	.	.	.	.	.	.	.	.	.	.	.
8C\	n7_ 2_	8d 8G\	.	16bnLL 16f/	.	16ccc\LL	.	.	.	.	4d\)	.	.	.	.	.	4bn\)	.	8g\L	.	8g\L	.	8dd\L	.	4ff\	.
.	.	.	.	16b 16f/	.	16bbn\	.	.	.	.	.	.	.	.	.	.	.	.	.	.	.	.	.	.	.	.
8C\J	.	8dJ 8G\	.	16b 16f/	.	16bb\	.	.	.	.	.	.	.	.	.	.	.	.	8g\J	.	8g\J	.	8bX\J	.	.	.
.	.	.	.	16bJJ 16f/	.	16bb\JJ	.	.	.	.	.	.	.	.	.	.	.	.	.	.	.	.	.	.	.	.
*	*	*	*	*Xtremolo	*	*	*	*	*	*	*	*	*	*	*	*	*	*	*	*	*	*	*	*	*	*
!	!	!	!	!	!	!LO:LB:g=original	!	!	!	!	!	!	!	!	!	!	!	!	!	!	!	!	!	!	!	!
=11	=11	=11	=11	=11	=11	=11	=11	=11	=11	=11	=11	=11	=11	=11	=11	=11	=11	=11	=11	=11	=11	=11	=11	=11	=11	=11
*	*	*^	*	*	*	*	*	*	*	*	*	*	*	*	*	*	*	*	*	*	*	*	*	*	*	*
8C\L	5_ 3_	16e/KL	2G/	.	16ccKL 16g/	.	(16ccc\LL	.	8C\	-son	.	8e\	-son	.	8e\	-son	.	8cc\	-son	4c/	.	4g\	.	8cc\	.	8ee\	.
.	.	8e/	.	.	8cc 8g/	f	16ff#X\)	.	.	.	.	.	.	.	.	.	.	.	.	.	.	.	.	.	.	.	.
8C\	.	.	.	.	.	.	16gg\	.	4C\	Ky-	.	4c\	Ky-	.	4g\	Ky-	.	4ee\	Ky-	.	.	.	.	8r	.	8r	.
.	.	8e/	.	.	8cc 8g/	.	(16dd#X\JJ	.	.	.	.	.	.	.	.	.	.	.	.	.	.	.	.	.	.	.	.
8C\	.	.	.	.	.	.	16ee\LL)	.	.	.	.	.	.	.	.	.	.	.	.	8c/L	.	8g\L	.	8cc\L	.	8ee\L	.
.	.	8e/	.	.	8cc 8g/	.	(16bn\	.	.	.	.	.	.	.	.	.	.	.	.	.	.	.	.	.	.	.	.
8C\J	.	.	.	.	.	.	16cc\)	.	8C\	-ri-	.	8c\	-ri-	.	8g\	-ri-	.	8ee\	-ri-	8c/J	.	8g\J	.	8cc\J	.	8ee\J	.
*	*	*	*	*	*custos	*	*	*	*	*	*	*	*	*	*	*	*	*	*	*	*	*	*	*	*	*	*
.	.	16e/Jk	.	.	16ccJk 16g/	.	16a|\JJ	.	.	.	.	.	.	.	.	.	.	.	.	.	.	.	.	.	.	.	.
*	*	*	*	*	*	*	*	*	*	*	*	*	*	*	*	*	*	*	*	*	*	*	*	*	*	*2\right	*
!	!	!LO:LB:g=original	!	!	!LO:LB:g=original	!	!	!	!	!	!	!	!	!	!	!	!	!	!	!	!	!	!	!	!	!	!
8C\L	n7_ 2_	16g/KL	2G/	.	16bnKL 16f/	.	(16g\LL	.	4.C\	-e	.	4.d\	-e	.	4.bn\	-e	.	4.ff\	-e	2g\	.	2g\	.	8bX\L	.	2ff\	.
.	.	8g/	.	.	8b 8f/	.	16ff#\)	.	.	.	.	.	.	.	.	.	.	.	.	.	.	.	.	.	.	.	.
8C\	.	.	.	.	.	.	16ff#|\	.	.	.	.	.	.	.	.	.	.	.	.	.	.	.	.	8dd\	.	.	.
.	.	8g/	.	.	8b 8f/	.	16ff#|\JJ	.	.	.	.	.	.	.	.	.	.	.	.	.	.	.	.	.	.	.	.
8C\	.	.	.	.	.	.	16.ff#t\LL	.	.	.	.	.	.	.	.	.	.	.	.	.	.	.	.	8b\	.	.	.
.	.	8g/	.	.	8b 8f/	.	.	.	.	.	.	.	.	.	.	.	.	.	.	.	.	.	.	.	.	.	.
!	!	!	!	!	!	!	!LO:N:vis=32	!	!	!	!	!	!	!	!	!	!	!	!	!	!	!	!	!	!	!	!
.	.	.	.	.	.	.	(64ee\LL	.	.	.	.	.	.	.	.	.	.	.	.	.	.	.	.	.	.	.	.
!	!	!	!	!	!	!	!LO:N:vis=32	!	!	!	!	!	!	!	!	!	!	!	!	!	!	!	!	!	!	!	!
.	.	.	.	.	.	.	64ff#\JJ)	.	.	.	.	.	.	.	.	.	.	.	.	.	.	.	.	.	.	.	.
8C\J	.	.	.	.	.	.	16gg\	.	8C\	e-	.	8d\	e-	.	8b\	e-	.	8ff\	e-	.	.	.	.	8dd\J	.	.	.
.	.	16g/Jk	.	.	16bJk 16f/	.	16ff#\JJ	.	.	.	.	.	.	.	.	.	.	.	.	.	.	.	.	.	.	.	.
=12	=12	=12	=12	=12	=12	=12	=12	=12	=12	=12	=12	=12	=12	=12	=12	=12	=12	=12	=12	=12	=12	=12	=12	=12	=12	=12	=12
*	*	*	*	*	*	*	*	*	*	*	*	*	*	*	*	*	*	*	*	*tremolo	*	*tremolo	*	*	*	*	*
!	!	!	!	!	!	!	!	!	!	!	!	!LO:TX:t=P:problem=mixed beam	!	!	!	!	!	!LO:N:vis=4.	!	!	!	!	!	!	!	!	!
8C\L	8_ 3_	16g/KL	2G/	.	16ccKL 16e/	.	16ee\LL	.	4C\	-ley-	.	8G/L	-ley-	.	4g\	-ley-	.	4ee\	-ley-	8c/L	.	8g\L	.	4cc\	.	4ee\	.
.	.	8g/	.	.	8cc 8e/	.	(16ff#X\	.	.	.	.	.	.	.	.	.	.	.	.	.	.	.	.	.	.	.	.
8C\	.	.	.	.	.	.	16gg\)	.	.	.	.	8c\J	.	.	.	.	.	.	.	8c/	.	8g\	.	.	.	.	.
.	.	8g/	.	.	8cc 8e/	.	(16dd#X\JJ	.	.	.	.	.	.	.	.	.	.	.	.	.	.	.	.	.	.	.	.
8C\	.	.	.	.	.	.	16ee\LL)	.	8C\	-son	.	8c\	-son	.	8g\	-son	.	8ee\L	-son	8c/	.	8g\	.	8g\L	.	8ee\L	.
.	.	8g/	.	.	8cc 8e/	.	(16bn\	.	.	.	.	.	.	.	.	.	.	.	.	.	.	.	.	.	.	.	.
8C\J	.	.	.	.	.	.	16cc\)	.	8C\	e-	.	8c\	e-	.	8g\	e-	.	8ee\J	e-	8c/J	.	8g\J	.	8cc\J	.	8ee\J	.
.	.	16g/Jk	.	.	16ccJk 16e/	.	16a\JJ	.	.	.	.	.	.	.	.	.	.	.	.	.	.	.	.	.	.	.	.
*	*	*	*	*	*	*	*	*	*	*	*	*	*	*	*	*	*	*2\right	*	*Xtremolo	*	*Xtremolo	*	*2\right	*	*	*
8C\L	n7_ 2_	16gKL 16Bn/	2ryy	.	16bnKL 16f/	.	(16a/LL	.	2C/	-ley-	.	2d\	-ley-	.	2bn\	-ley-	.	2ff\	-ley-	4g\	.	4g\	.	2bX\	.	2ff\	.
.	.	8g 8B/	.	.	8b 8f/	.	16g/)	.	.	.	.	.	.	.	.	.	.	.	.	.	.	.	.	.	.	.	.
8C\	.	.	.	.	.	.	16g|/	.	.	.	.	.	.	.	.	.	.	.	.	.	.	.	.	.	.	.	.
.	.	8g 8B/	.	.	8b 8f/	.	16g|/JJ	.	.	.	.	.	.	.	.	.	.	.	.	.	.	.	.	.	.	.	.
8C\	.	.	.	.	.	.	(16f#X/LL	.	.	.	.	.	.	.	.	.	.	.	.	4r	.	4r	.	.	.	.	.
.	.	8g 8B/	.	.	8b 8g/	.	16g/)	.	.	.	.	.	.	.	.	.	.	.	.	.	.	.	.	.	.	.	.
8C\J	.	.	.	.	.	.	16a|/	.	.	.	.	.	.	.	.	.	.	.	.	.	.	.	.	.	.	.	.
.	.	16gJk 16B/	.	.	16bJk 16g/	.	16bn|/JJ	.	.	.	.	.	.	.	.	.	.	.	.	.	.	.	.	.	.	.	.
*	*	*v	*v	*	*	*	*	*	*	*	*	*	*	*	*	*	*	*	*	*	*	*	*	*	*	*	*
=13	=13	=13	=13	=13	=13	=13	=13	=13	=13	=13	=13	=13	=13	=13	=13	=13	=13	=13	=13	=13	=13	=13	=13	=13	=13	=13
*	*	*	*	*	*	*	*	*	*	*	*	*	*	*	*	*	*	*	*	*	*tremolo	*	*	*	*	*
!LO:TX:t=P:problem=mixed beam	!	!	!	!	!	!	!	!	!	!	!	!	!	!	!	!	!	!	!	!	!	!	!	!	!	!
8C/L	x	8gL 8c/	.	8ccL 8e/	.	(16cc\LL	.	8C\	-son	.	8c\	-son	.	8g\	-son	.	8ee\	-son	8c/L	.	8g\L	.	8cc\L	.	8ee\L	.
.	.	.	.	.	.	16ee\	.	.	.	.	.	.	.	.	.	.	.	.	.	.	.	.	.	.	.	.
8G\	7 n	8d 8G/	.	8bn 8f/	.	16dd\	.	8G\	e-	.	8Bn\	e-	.	8g\	e-	.	8dd\	e-	8g/	.	8g\	.	8bX\	.	8dd\	.
.	.	.	.	.	.	16ff\JJ)	.	.	.	.	.	.	.	.	.	.	.	.	.	.	.	.	.	.	.	.
8c\	.	8c/	.	8cc 8e/	.	(16ee\LL	.	8c\L	-ley-	.	8c\L	-ley-	.	(8g\L	-ley-	.	8ee\L	-ley-	8c/	.	8g\	.	8cc\	.	8ee\	.
.	.	.	.	.	.	16gg\	.	.	.	.	.	.	.	.	.	.	.	.	.	.	.	.	.	.	.	.
*	*	*	*	*	*	*	*	*	*	*	*	*	*	*	*	*	*	*	*	*	*	*	*custos	*	*	*
8G\J	7 n	8dJ 8G/	.	8fJ 8G/	.	16bn\	.	8G\J	.	.	8d\J	.	.	8f\J)	.	.	8bn\J	.	8g/J	.	8g\J	.	8dd\J	.	8ff\J	.
*	*	*	*	*	*	*custos	*	*	*	*	*	*	*	*	*	*	*	*	*	*	*	*	*	*	*	*
.	.	.	.	.	.	16dd\JJ)	.	.	.	.	.	.	.	.	.	.	.	.	.	.	.	.	.	.	.	.
*	*	*	*	*	*	*	*	*	*	*	*	*	*	*	*	*	*	*	*	*	*Xtremolo	*	*	*	*	*
!LO:LB:g=original	!	!	!	!	!	!	!	!	!	!	!	!	!	!	!	!	!	!	!	!	!	!	!LO:TX:t=P:problem=mixed beam	!	!	!
8C\L	.	8c/L	.	8eL 8G/	.	8cc/L	.	8C/	-son	.	4c\	-son	.	4e\	-son	.	4cc\	-son	8c/L	.	8g\L	.	8cc\L	.	8ee\L	.
8C\	.	8c 8C/	.	8e 8c/	.	8cc 8e 8G/	.	8r	.	.	.	.	.	.	.	.	.	.	8c/	.	8g\	.	8e/	.	8cc\	.
8C\J	.	8cJ 8C/	.	8eJ 8c/	.	8ccJ 8e 8G/	.	4r	.	.	4r	.	.	4r	.	.	4r	.	8c/J	.	8g\J	.	8e/J	.	8cc\J	.
8r	.	8r	.	8r	.	8r	.	.	.	.	.	.	.	.	.	.	.	.	8r	.	8r	.	8r	.	8r	.
!	!	!	!	!	!	!	!	!LO:LB:g=original	!	!	!	!	!	!	!	!	!LO:LB:g=original	!	!	!	!	!	!	!	!LO:LB:g=original	!
=14	=14	=14	=14	=14	=14	=14	=14	=14	=14	=14	=14	=14	=14	=14	=14	=14	=14	=14	=14	=14	=14	=14	=14	=14	=14	=14
!LO:TX:a:i:t=Solo.	!	!	!LO:DY:t=p.	!	!	!	!LO:DY:a:t=p.	!LO:TX:a:t=11.	!	!	!LO:TX:a:t=11.	!	!	!LO:TX:a:t=2.	!	!	!LO:TX:a:i:t=Solo.	!	!LO:TX:a:t=4.	!	!LO:TX:a:t=4	!	!LO:TX:a:i:t=Solo.	!	!LO:TX:b:i:t=Solo.	!
8C\L	8 3	16c/LL	p	8c/	.	8c/	p	00r	.	.	00r	.	.	0r	.	.	8cc\	Chri-	00r	.	00r	.	8e/	.	8cc\	.
.	.	16C/	.	.	.	.	.	.	.	.	.	.	.	.	.	.	.	.	.	.	.	.	.	.	.	.
!	!	!	!	!	!	!	!LO:DY:a:t=rf	!	!	!	!	!	!	!	!	!	!	!	!	!	!	!	!	!	!	!
8G\	.	16E/	.	4c/	.	4c/	rf	.	.	.	.	.	.	.	.	.	4cc\	-ste	.	.	.	.	4e/	.	4cc\	.
.	.	16G/JJ	.	.	.	.	.	.	.	.	.	.	.	.	.	.	.	.	.	.	.	.	.	.	.	.
8E\	.	16c/LL	.	.	.	.	.	.	.	.	.	.	.	.	.	.	.	.	.	.	.	.	.	.	.	.
.	.	16G/	.	.	.	.	.	.	.	.	.	.	.	.	.	.	.	.	.	.	.	.	.	.	.	.
8C\J	.	16E/	.	16c/LL	.	16e/LL	.	.	.	.	.	.	.	.	.	.	16ee\LL	e-	.	.	.	.	16cc\LL	.	(16ee\LL	.
*	*	*	*	*custos	*	*	*	*	*	*	*	*	*	*	*	*	*	*	*	*	*	*	*	*	*	*
.	.	16C/JJ	.	16Bn/JJ	.	16d/JJ	.	.	.	.	.	.	.	.	.	.	16dd\JJ	.	.	.	.	.	16bX\JJ	.	16dd\JJ)	.
!	!	!	!	!LO:LB:g=original	!	!	!LO:HP:a:t=cres.	!	!	!	!	!	!	!	!	!	!	!	!	!	!	!	!	!	!	!
4GG/	.	4G/	.	8Bn/	.	16d|/LL	<	.	.	.	.	.	.	.	.	.	8dd\	-ley-	.	.	.	.	8b\	.	8dd\	.
.	.	.	.	.	.	16G|/	.	.	.	.	.	.	.	.	.	.	.	.	.	.	.	.	.	.	.	.
.	.	.	.	8r	.	16Bn|/	.	.	.	.	.	.	.	.	.	.	8g\	-son	.	.	.	.	8r	.	8r	.
.	.	.	.	.	.	16d|/JJ	.	.	.	.	.	.	.	.	.	.	.	.	.	.	.	.	.	.	.	.
!	!	!	!	!	!	!	!	!	!	!	!	!	!	!	!	!	!	!	!	!	!	!	!LO:TX:t=P:problem=brak pauzy 4r	!	!	!
4r	.	4r	.	4r	.	16g|/LL	.	.	.	.	.	.	.	.	.	.	4r	.	.	.	.	.	4ryy	.	4r	.
.	.	.	.	.	.	16bn|/	.	.	.	.	.	.	.	.	.	.	.	.	.	.	.	.	.	.	.	.
.	.	.	.	.	.	16dd|/	.	.	.	.	.	.	.	.	.	.	.	.	.	.	.	.	.	.	.	.
.	.	.	.	.	.	16gg|/JJ	.	.	.	.	.	.	.	.	.	.	.	.	.	.	.	.	.	.	.	.
=15	=15	=15	=15	=15	=15	=15	=15	=15	=15	=15	=15	=15	=15	=15	=15	=15	=15	=15	=15	=15	=15	=15	=15	=15	=15	=15
8GG/L	.	16G/LL	.	8Bn/	.	8d/	.	.	.	.	.	.	.	.	.	.	8dd\	Chri-	.	.	.	.	8bX\	.	8dd\	.
.	.	16D/	.	.	.	.	.	.	.	.	.	.	.	.	.	.	.	.	.	.	.	.	.	.	.	.
!	!	!	!	!	!	!	!LO:DY:a:t=rf	!	!	!	!	!	!	!	!	!	!	!	!	!	!	!	!	!	!	!
8BBn/	.	16Bn/	.	4B/	.	4d/	rf	.	.	.	.	.	.	.	.	.	4dd\	-ste	.	.	.	.	4b\	.	4dd\	rf
.	.	16G/JJ	.	.	.	.	.	.	.	.	.	.	.	.	.	.	.	.	.	.	.	.	.	.	.	.
8D/	.	16d/LL	.	.	.	.	.	.	.	.	.	.	.	.	.	.	.	.	.	.	.	.	.	.	.	.
.	.	16B/	.	.	.	.	.	.	.	.	.	.	.	.	.	.	.	.	.	.	.	.	.	.	.	.
8G/J	.	16G/	.	16d/LL	.	(16f/LL	.	.	.	.	.	.	.	.	.	.	16ff\LL	e-	.	.	.	.	(16dd\LL	.	16ff\LL	.
*	*	*custos	*	*	*	*	*	*	*	*	*	*	*	*	*	*	*	*	*	*	*	*	*	*	*	*
.	.	16B/JJ	.	16c/JJ	.	16e/JJ)	.	.	.	.	.	.	.	.	.	.	16ee\JJ	.	.	.	.	.	16cc\JJ)	.	16ee\JJ	.
!	!	!LO:LB:g=original	!	!	!	!	!	!	!	!	!	!	!	!	!	!	!	!	!	!	!	!	!	!	!	!
4C\	.	4c\	.	8c/	.	16e/LL	.	.	.	.	.	.	.	.	.	.	8ee\	-ley-	.	.	.	.	4cc\	.	8ee\	.
.	.	.	.	.	.	16c/	.	.	.	.	.	.	.	.	.	.	.	.	.	.	.	.	.	.	.	.
!	!	!	!	!LO:TX:t=P:problem=brak pauzy 8r	!	!	!	!	!	!	!	!	!	!	!	!	!	!	!	!	!	!	!	!	!	!
.	.	.	.	8ryy	.	16e/	.	.	.	.	.	.	.	.	.	.	8cc\	-son	.	.	.	.	.	.	8r	.
.	.	.	.	.	.	16g/JJ	.	.	.	.	.	.	.	.	.	.	.	.	.	.	.	.	.	.	.	.
4r	.	4r	.	4r	.	16cc|\LL	.	.	.	.	.	.	.	.	.	.	4r	.	.	.	.	.	4r	.	4r	.
.	.	.	.	.	.	16ee|\	.	.	.	.	.	.	.	.	.	.	.	.	.	.	.	.	.	.	.	.
.	.	.	.	.	.	16gg|\	.	.	.	.	.	.	.	.	.	.	.	.	.	.	.	.	.	.	.	.
.	.	.	.	.	.	16ccc|\JJ	.	.	.	.	.	.	.	.	.	.	.	.	.	.	.	.	.	.	.	.
!	!	!	!	!	!	!	!	!	!	!	!	!	!	!LO:LB:g=original	!	!	!	!	!	!	!	!	!	!	!	!
=16	=16	=16	=16	=16	=16	=16	=16	=16	=16	=16	=16	=16	=16	=16	=16	=16	=16	=16	=16	=16	=16	=16	=16	=16	=16	=16
*	*	*	*	*tremolo	*	*	*	*	*	*	*	*	*	*	*	*	*	*	*	*	*	*	*	*	*	*
!	!	!LO:TX:t=P:problem=mixed beam	!	!	!	!	!LO:DY:t=rf	!	!	!	!	!	!	!	!	!	!	!	!	!	!	!	!	!	!	!
8F\L	5_ 3_	8A/L	.	16c/LL	.	(16aa\LL	rf	.	.	.	.	.	.	4a\	Chri-	.	4r	.	.	.	.	.	8a\	.	8cc\	.
.	.	.	.	16c/	.	16cc\JJ)	.	.	.	.	.	.	.	.	.	.	.	.	.	.	.	.	.	.	.	.
8f\	.	8a\	.	16c/	.	16r	.	.	.	.	.	.	.	.	.	.	.	.	.	.	.	.	8r	.	8r	.
.	.	.	.	16c/	.	16cc|\	.	.	.	.	.	.	.	.	.	.	.	.	.	.	.	.	.	.	.	.
8c\	6_	8g\	.	16c/	.	(16bn\LL	.	.	.	.	.	.	.	8g\	-ste	.	8r	.	.	.	.	.	8g/	.	8cc\	.
*	*	*	*	*	*	*custos	*	*	*	*	*	*	*	*	*	*	*	*	*	*	*	*	*	*	*	*
.	.	.	.	16c/	.	16cc\JJ)	.	.	.	.	.	.	.	.	.	.	.	.	.	.	.	.	.	.	.	.
!	!	!	!	!	!	!LO:LB:g=original	!	!	!	!	!	!	!	!	!	!	!	!	!	!	!	!	!	!	!	!
8E\J	.	8G/J	.	16c/	.	16r	.	.	.	.	.	.	.	8r	.	.	8cc\	e-	.	.	.	.	8r	.	8r	.
.	.	.	.	16c/JJ	.	16gg|\	.	.	.	.	.	.	.	.	.	.	.	.	.	.	.	.	.	.	.	.
*	*	*	*	*Xtremolo	*	*	*	*	*	*	*	*	*	*	*	*	*	*	*	*	*	*	*	*	*	*
!	!	!	!	!	!	!LO:TX:t=P:problem=mixed beam	!	!	!	!	!	!	!	!	!	!	!	!	!	!	!	!	!	!	!	!
8D\L	6_	8G/L	.	16Bn/LL	.	(16ff\LL	.	.	.	.	.	.	.	2r	.	.	(8.bn\L	-ley-	.	.	.	.	8bX\	.	8ff\	.
.	.	.	.	16g/	.	16g/JJ)	.	.	.	.	.	.	.	.	.	.	.	.	.	.	.	.	.	.	.	.
8G\	.	8Bn/	.	16g/	.	16r	.	.	.	.	.	.	.	.	.	.	.	.	.	.	.	.	8r	.	8r	.
.	.	.	.	16g/JJ	.	16ff|\	.	.	.	.	.	.	.	.	.	.	32cc\LL	.	.	.	.	.	.	.	.	.
.	.	.	.	.	.	.	.	.	.	.	.	.	.	.	.	.	32dd\JJJ)	.	.	.	.	.	.	.	.	.
*	*	*	*	*tremolo	*	*	*	*	*	*	*	*	*	*	*	*	*	*	*	*	*	*	*	*	*	*
8C\	x	8c/	.	16g/LL	.	(16dd#X\LL	.	.	.	.	.	.	.	.	.	.	8cc\	-son	.	.	.	.	8cc\	.	8ee\	.
.	.	.	.	16g/	.	16ee\JJ)	.	.	.	.	.	.	.	.	.	.	.	.	.	.	.	.	.	.	.	.
!	!	!	!	!	!	!	!	!	!	!	!	!	!	!	!	!	!	!	!	!	!	!	!LO:TX:t=P:problem=brak pauzy 8r	!	!	!
8c\J	.	8G/J	.	16g/	.	16r	.	.	.	.	.	.	.	.	.	.	8r	.	.	.	.	.	8ryy	.	8r	.
.	.	.	.	16g/JJ	.	16ee|\	.	.	.	.	.	.	.	.	.	.	.	.	.	.	.	.	.	.	.	.
*	*	*	*	*Xtremolo	*	*	*	*	*	*	*	*	*	*	*	*	*	*	*	*	*	*	*	*	*	*
!	!	!	!	!	!	!	!	!	!	!	!	!	!	!	!	!	!LO:LB:g=original	!	!	!	!	!	!	!	!	!
=17	=17	=17	=17	=17	=17	=17	=17	=17	=17	=17	=17	=17	=17	=17	=17	=17	=17	=17	=17	=17	=17	=17	=17	=17	=17	=17
!	!	!	!	!	!	!	!	!	!	!	!	!	!	!LO:TX:b:t=8	!	!	!	!	!	!	!	!	!	!	!	!
8F\L	6_	8G/L	.	(16d/LL	.	(16cc#X\LL	.	.	.	.	.	.	.	00r	.	.	8r	.	.	.	.	.	8a\	.	8dd\	.
.	.	.	.	16A/)	.	16dd\JJ)	.	.	.	.	.	.	.	.	.	.	.	.	.	.	.	.	.	.	.	.
8F\	.	8d/J	.	16A|/	.	16r	.	.	.	.	.	.	.	.	.	.	8dd\	e-	.	.	.	.	8r	.	8r	.
.	.	.	.	16A|/JJ	.	16aa\	.	.	.	.	.	.	.	.	.	.	.	.	.	.	.	.	.	.	.	.
8F#X\	6 5	8D/L	.	(16A/LL	.	(16dd\LL	.	.	.	.	.	.	.	.	.	.	8dd\L	-ley-	.	.	.	.	8a\	.	8cc\	.
.	.	.	.	16a,</)	.	16cc\JJ)	.	.	.	.	.	.	.	.	.	.	.	.	.	.	.	.	.	.	.	.
8F#\J	.	8d/J	.	16a|/	.	16rg	.	.	.	.	.	.	.	.	.	.	8cc\J	.	.	.	.	.	8r	.	8r	.
.	.	.	.	16a|/JJ	.	16cc|\	.	.	.	.	.	.	.	.	.	.	.	.	.	.	.	.	.	.	.	.
8G\	n	8G/	.	8d/	.	16bn|\LL	.	.	.	.	.	.	.	.	.	.	8bn\	-son	.	.	.	.	8g\L	.	8bX\	.
.	.	.	.	.	.	16dd|\	.	.	.	.	.	.	.	.	.	.	.	.	.	.	.	.	.	.	.	.
!	!	!	!	!	!	!	!LO:DY:t=rf	!	!	!	!	!	!	!	!	!	!	!	!	!	!	!	!	!	!	!
8r	.	8r	.	8r	.	(16aa\	rf	.	.	.	.	.	.	.	.	.	8r	.	.	.	.	.	8bX\	.	8r	.
.	.	.	.	.	.	16gg\JJ)	.	.	.	.	.	.	.	.	.	.	.	.	.	.	.	.	.	.	.	.
8GG/	7 n	8g\L	.	8f/L	.	(16b\LL	.	.	.	.	.	.	.	.	.	.	4r	.	.	.	.	.	8dd\	.	(8ff\L	.
.	.	.	.	.	.	16dd\)	.	.	.	.	.	.	.	.	.	.	.	.	.	.	.	.	.	.	.	.
8r	.	8f\J	.	8d/J	.	(16aa-X\	.	.	.	.	.	.	.	.	.	.	.	.	.	.	.	.	8b\J	.	8dd\J)	.
.	.	.	.	.	.	16gg\JJ)	.	.	.	.	.	.	.	.	.	.	.	.	.	.	.	.	.	.	.	.
!LO:LB:g=original	!	!	!	!	!	!	!	!	!	!	!	!	!	!	!	!	!	!	!	!	!	!	!LO:LB:g=original	!	!LO:LB:g=original	!
=18	=18	=18	=18	=18	=18	=18	=18	=18	=18	=18	=18	=18	=18	=18	=18	=18	=18	=18	=18	=18	=18	=18	=18	=18	=18	=18
!	!	!LO:TX:t=P:problem=mixed beam	!	!	!	!	!	!	!	!	!	!	!	!	!	!	!	!	!	!	!	!	!	!	!	!
16C\LL	-_	8e-X\L	.	8e-X/	.	8cc\	.	00r	.	.	00r	.	.	.	.	.	8cc\	Chri-	8r	.	8r	.	8cc\	.	8cc\	.
16E-X\	.	.	.	.	.	.	.	.	.	.	.	.	.	.	.	.	.	.	.	.	.	.	.	.	.	.
*	*	*	*	*custos	*	*	*	*	*	*	*	*	*	*	*	*	*	*	*	*	*	*	*	*	*	*
!	!	!	!	!	!	!	!LO:DY:a:t=pp.	!	!	!	!	!	!	!	!	!	!	!	!	!	!	!	!	!	!	!
16G\	.	8E-X/	.	4c/	.	4c/	pp	.	.	.	.	.	.	.	.	.	4cc\	-ste	8c\L	.	8c/L	.	4e-/	.	4cc\	rf
16E-\JJ	.	.	.	.	.	.	.	.	.	.	.	.	.	.	.	.	.	.	.	.	.	.	.	.	.	.
16C/LL	6	8G/	.	.	.	.	.	.	.	.	.	.	.	.	.	.	.	.	8c\	.	8c/	.	.	.	.	.
16GG/	.	.	.	.	.	.	.	.	.	.	.	.	.	.	.	.	.	.	.	.	.	.	.	.	.	.
!	!	!	!	!LO:LB:g=original	!	!	!LO:DY:t=f.	!	!	!	!	!	!	!	!	!	!	!	!	!	!	!	!	!	!	!
16EE-X/	.	8E-/J	.	16c/LL	.	16e-X/LL	f	.	.	.	.	.	.	.	.	.	16ee-X\LL	e-	8c\J	.	8c/J	.	16cc\LL	.	(16ee-\LL	.
16CC/JJ	.	.	.	16Bn/JJ	.	16d/JJ	.	.	.	.	.	.	.	.	.	.	16dd\JJ	.	.	.	.	.	16bX\JJ	.	16dd\JJ)	.
!	!	!	!	!	!	!	!	!	!	!	!	!	!	!	!	!	!	!	!LO:LB:g=original	!	!	!	!	!	!	!
8GG/	n	8G/L	.	8B/L	.	16d/LL	.	.	.	.	.	.	.	.	.	.	8dd\	-ley-	4g\	.	4g\	.	8b\	.	8dd\	.
.	.	.	.	.	.	16g/	.	.	.	.	.	.	.	.	.	.	.	.	.	.	.	.	.	.	.	.
!	!	!	!	!	!	!	!LO:HP:t=cres	!	!	!	!	!	!	!	!	!	!	!	!	!	!	!	!	!	!	!
8r	.	8Bn/	.	8d/	.	16bn/	<	.	.	.	.	.	.	.	.	.	8g\	-son	.	.	.	.	8r	.	8r	.
.	.	.	.	.	.	16dd/JJ	.	.	.	.	.	.	.	.	.	.	.	.	.	.	.	.	.	.	.	.
4r	.	8G/	.	8B/	.	(16ff#X\LL	.	.	.	.	.	.	.	.	.	.	4r	.	4r	.	4r	.	4r	.	4r	.
.	.	.	.	.	.	16gg\)	.	.	.	.	.	.	.	.	.	.	.	.	.	.	.	.	.	.	.	.
.	.	8B/J	.	8d/J	.	16gg|\	.	.	.	.	.	.	.	.	.	.	.	.	.	.	.	.	.	.	.	.
.	.	.	.	.	.	16gg|\JJ	.	.	.	.	.	.	.	.	.	.	.	.	.	.	.	.	.	.	.	.
!	!	!	!	!	!	!LO:LB:g=original	!	!	!	!	!	!	!	!	!	!	!	!	!	!	!LO:LB:g=original	!	!	!	!	!
=19	=19	=19	=19	=19	=19	=19	=19	=19	=19	=19	=19	=19	=19	=19	=19	=19	=19	=19	=19	=19	=19	=19	=19	=19	=19	=19
!LO:TX:t=P:problem=mixed beam	!	!	!	!	!	!	!	!	!	!	!	!	!	!	!	!	!	!	!	!	!	!	!	!	!	!
16G\LL	n_	8G/L	.	8Bn/	.	8d/	.	.	.	.	.	.	.	.	.	.	8dd\	Chri-	8r	.	8r	.	8bX\	.	8dd\	.
16GG/	.	.	.	.	.	.	.	.	.	.	.	.	.	.	.	.	.	.	.	.	.	.	.	.	.	.
16BBn/	.	8d/	.	4B/	.	4d/	.	.	.	.	.	.	.	.	.	.	4dd\	-ste	8g\L	.	8g\L	.	4b\	.	4dd\	rf
16D/JJ	.	.	.	.	.	.	.	.	.	.	.	.	.	.	.	.	.	.	.	.	.	.	.	.	.	.
16G\LL	.	8G/	.	.	.	.	.	.	.	.	.	.	.	.	.	.	.	.	8g\	.	8g\	.	.	.	.	.
16Bn\	.	.	.	.	.	.	.	.	.	.	.	.	.	.	.	.	.	.	.	.	.	.	.	.	.	.
!	!	!	!	!	!	!	!LO:DY:t=rf	!	!	!	!	!	!	!	!	!	!	!	!	!	!	!	!	!	!	!
16d\	.	8d/J	.	16d/LL	.	(16f/LL	rf	.	.	.	.	.	.	.	.	.	16ff\LL	e-	8g\J	.	8g\J	.	16dd\LL	.	(16ff\LL	.
16B\JJ	.	.	.	16c/JJ	.	16e-X/JJ)	.	.	.	.	.	.	.	.	.	.	16ee-X\JJ	.	.	.	.	.	16cc\JJ	.	16ee-\JJ)	.
!LO:TX:t=P:problem=mixed beam	!	!	!	!	!	!	!	!	!	!	!	!	!	!	!	!	!	!	!	!	!	!	!	!	!	!
8c\L	-	8G/L	.	8c/	.	16e-/LL	.	.	.	.	.	.	.	.	.	.	8ee-\	-ley-	4g\	.	4g\	.	8cc\	.	8ee-\	.
.	.	.	.	.	.	16c/	.	.	.	.	.	.	.	.	.	.	.	.	.	.	.	.	.	.	.	.
8C/	.	8G/	.	8r	.	16e-/	.	.	.	.	.	.	.	.	.	.	8cc\	-son	.	.	.	.	4r	.	8r	.
.	.	.	.	.	.	16g/JJ	.	.	.	.	.	.	.	.	.	.	.	.	.	.	.	.	.	.	.	.
!	!	!	!	!	!	!	!LO:HP:t=cres.	!	!	!	!	!	!	!	!	!	!	!	!	!	!	!	!	!	!	!
8E-X/	6	8E-X/	.	4r	.	(16cc\LL	<	.	.	.	.	.	.	.	.	.	4r	.	4r	.	4r	.	.	.	4r	.
.	.	.	.	.	.	16ee-X\)	.	.	.	.	.	.	.	.	.	.	.	.	.	.	.	.	.	.	.	.
8C/J	.	8G/J	.	.	.	16gg\	.	.	.	.	.	.	.	.	.	.	.	.	.	.	.	.	8r	.	.	.
.	.	.	.	.	.	16ccc\JJ	.	.	.	.	.	.	.	.	.	.	.	.	.	.	.	.	.	.	.	.
!	!	!LO:LB:g=original	!	!	!	!	!	!	!	!	!	!	!	!	!	!	!LO:LB:g=original	!	!	!	!	!	!	!	!	!
=20	=20	=20	=20	=20	=20	=20	=20	=20	=20	=20	=20	=20	=20	=20	=20	=20	=20	=20	=20	=20	=20	=20	=20	=20	=20	=20
!LO:TX:t=P:problem=mixed beam	!	!	!	!	!	!	!	!	!	!	!	!	!	!	!	!	!	!	!LO:TX:a:t=2.	!	!LO:TX:a:t=2.	!	!LO:TX:a:t=2.	!	!LO:TX:a:t=2.	!
8FF/L	-_	8A-X/L	.	8cc\L	.	(16aa-X^<\LL	.	.	.	.	.	.	.	.	.	.	8a-X\	Chri-	0r	.	0r	.	0r	.	0r	.
.	.	.	.	.	.	16cc\JJ)	.	.	.	.	.	.	.	.	.	.	.	.	.	.	.	.	.	.	.	.
8F\	.	8a-X/	.	(8cc\	.	16r	.	.	.	.	.	.	.	.	.	.	4a-\	-ste	.	.	.	.	.	.	.	.
.	.	.	.	.	.	16aa-|\	.	.	.	.	.	.	.	.	.	.	.	.	.	.	.	.	.	.	.	.
8D\	-5 3	8f/	.	8b-X\)	.	(16ccc^<\LL	.	.	.	.	.	.	.	.	.	.	.	.	.	.	.	.	.	.	.	.
.	.	.	.	.	.	16bb-X\JJ)	.	.	.	.	.	.	.	.	.	.	.	.	.	.	.	.	.	.	.	.
8D\J	.	8f/J	.	8b-\J	.	16r	.	.	.	.	.	.	.	.	.	.	16cc\LL	e-	.	.	.	.	.	.	.	.
.	.	.	.	.	.	16ff\	.	.	.	.	.	.	.	.	.	.	16b-\JJ	.	.	.	.	.	.	.	.	.
8E-X\L	-5 3	8g\L	.	8b-\L	.	(16aa-^<\LL	.	.	.	.	.	.	.	.	.	.	16a-\LL	-ley-	.	.	.	.	.	.	.	.
.	.	.	.	.	.	16gg\JJ)	.	.	.	.	.	.	.	.	.	.	16g\JJ	.	.	.	.	.	.	.	.	.
8E-\	.	8g\	.	8b-\	.	16r	.	.	.	.	.	.	.	.	.	.	8g\	-son	.	.	.	.	.	.	.	.
.	.	.	.	.	.	16gg|\	.	.	.	.	.	.	.	.	.	.	.	.	.	.	.	.	.	.	.	.
8C\	-5 3	8e-X\	.	8a-X\	.	(16bb-^<\LL	.	.	.	.	.	.	.	.	.	.	8r	.	.	.	.	.	.	.	.	.
.	.	.	.	.	.	16aa-X\JJ)	.	.	.	.	.	.	.	.	.	.	.	.	.	.	.	.	.	.	.	.
8C\J	-6 _	8e-\J	.	8a-\J	.	16r	.	.	.	.	.	.	.	.	.	.	16b-\LL	e-	.	.	.	.	.	.	.	.
.	.	.	.	.	.	16ee-X\	.	.	.	.	.	.	.	.	.	.	16a-\JJ	.	.	.	.	.	.	.	.	.
=21	=21	=21	=21	=21	=21	=21	=21	=21	=21	=21	=21	=21	=21	=21	=21	=21	=21	=21	=21	=21	=21	=21	=21	=21	=21	=21
8D\L	-5_ 3_	8f\L	.	8a-X/L	.	(16gg^<\LL	.	.	.	.	.	.	.	00r	.	.	16g/LL	-ley-	.	.	.	.	.	.	.	.
.	.	.	.	.	.	16ff\JJ)	.	.	.	.	.	.	.	.	.	.	16f/JJ	.	.	.	.	.	.	.	.	.
8D\	.	8f\	.	8a-/	.	16r	.	.	.	.	.	.	.	.	.	.	8f/	-son	.	.	.	.	.	.	.	.
.	.	.	.	.	.	16ff\	.	.	.	.	.	.	.	.	.	.	.	.	.	.	.	.	.	.	.	.
8BBn\	6 5	8d\	.	8g/	.	(16aa-X^<\LL	.	.	.	.	.	.	.	.	.	.	8r	.	.	.	.	.	.	.	.	.
.	.	.	.	.	.	16gg\JJ)	.	.	.	.	.	.	.	.	.	.	.	.	.	.	.	.	.	.	.	.
8BB\J	.	8d\J	.	8g/J	.	16r	.	.	.	.	.	.	.	.	.	.	16a-X/LL	e-	.	.	.	.	.	.	.	.
.	.	.	.	.	.	16dd\	.	.	.	.	.	.	.	.	.	.	16g/JJ	.	.	.	.	.	.	.	.	.
!LO:LB:g=original	!	!	!	!	!	!	!	!	!	!	!	!	!	!	!	!	!	!	!	!	!	!	!	!	!	!
8C\L	-	8e-X\L	.	8g/L	.	(16ff^<\LL	.	.	.	.	.	.	.	.	.	.	16f/LL	-ley-	.	.	.	.	.	.	.	.
*	*	*	*	*	*	*custos	*	*	*	*	*	*	*	*	*	*	*	*	*	*	*	*	*	*	*	*
.	.	.	.	.	.	16ee-X\JJ)	.	.	.	.	.	.	.	.	.	.	16e-X/JJ	.	.	.	.	.	.	.	.	.
!	!	!	!	!	!	!LO:LB:g=original	!	!	!	!	!	!	!	!	!	!	!	!	!	!	!	!	!	!	!	!
8E-X\	6	8e-\	.	8g/	.	16r	.	.	.	.	.	.	.	.	.	.	8e-/	-son	.	.	.	.	.	.	.	.
.	.	.	.	.	.	16cc\	.	.	.	.	.	.	.	.	.	.	.	.	.	.	.	.	.	.	.	.
8F\	6 -3	8f\	.	8a-X/	.	(16ee-X^<\LL	.	.	.	.	.	.	.	.	.	.	8r	.	.	.	.	.	.	.	.	.
.	.	.	.	.	.	16dd\JJ)	.	.	.	.	.	.	.	.	.	.	.	.	.	.	.	.	.	.	.	.
8G\J	7 n	8d\J	.	8f/J	.	16r	.	.	.	.	.	.	.	.	.	.	8g\	e-	.	.	.	.	.	.	.	.
.	.	.	.	.	.	16bn|\	.	.	.	.	.	.	.	.	.	.	.	.	.	.	.	.	.	.	.	.
!	!	!	!	!LO:LB:g=original	!	!	!	!	!	!	!	!	!	!	!	!	!	!	!	!	!	!	!	!	!	!
=22	=22	=22	=22	=22	=22	=22	=22	=22	=22	=22	=22	=22	=22	=22	=22	=22	=22	=22	=22	=22	=22	=22	=22	=22	=22	=22
*	*	*tremolo	*	*tremolo	*	*	*	*	*	*	*	*	*	*	*	*	*	*	*	*	*	*	*	*	*	*
!	!	!	!	!	!	!LO:N:vis=8.	!	!	!	!	!	!	!	!	!	!	!	!	!	!	!	!	!	!	!	!
16En\LL	6	16c\LL	.	16g/LL	.	16.gg\LL	.	0r	.	.	0r	.	.	.	.	.	4cc\	-ley-	4c/	.	4g\	.	4r	.	2r	.
16E\	.	16c\	.	16g/	.	.	.	.	.	.	.	.	.	.	.	.	.	.	.	.	.	.	.	.	.	.
!	!	!	!	!	!	!LO:TUP:a:problem=klamra łukowa	!	!	!	!	!	!	!	!	!	!	!	!	!	!	!	!	!	!	!	!
!	!	!	!	!	!	!LO:N:vis=48	!LO:HP:t=cres.	!	!	!	!	!	!	!	!	!	!	!	!	!	!	!	!	!	!	!
.	.	.	.	.	.	96aa\LL	<	.	.	.	.	.	.	.	.	.	.	.	.	.	.	.	.	.	.	.
!	!	!	!	!	!	!LO:N:vis=48	!	!	!	!	!	!	!	!	!	!	!	!	!	!	!	!	!	!	!	!
.	.	.	.	.	.	96gg\	.	.	.	.	.	.	.	.	.	.	.	.	.	.	.	.	.	.	.	.
!	!	!	!	!	!	!LO:N:vis=48	!	!	!	!	!	!	!	!	!	!	!	!	!	!	!	!	!	!	!	!
.	.	.	.	.	.	96ff#X\JJJJ	.	.	.	.	.	.	.	.	.	.	.	.	.	.	.	.	.	.	.	.
16E\	.	16c\	.	16g/	.	16gg\LL	.	.	.	.	.	.	.	.	.	.	.	.	.	.	.	.	.	.	.	.
16E\JJ	.	16c\JJ	.	16g/JJ	.	16ccc\JJ	.	.	.	.	.	.	.	.	.	.	.	.	.	.	.	.	.	.	.	.
*	*	*Xtremolo	*	*	*	*	*	*	*	*	*	*	*	*	*	*	*	*	*	*	*	*	*	*	*	*
!	!	!	!LO:HP:t=cres.	!	!	!	!	!	!	!	!	!	!	!	!	!	!	!	!	!	!	!	!	!	!	!
16F\LL	5 3	16c\LL	<	16an/LL	.	16bbn\LL	.	.	.	.	.	.	.	.	.	.	16bn\LL	.	4f/	.	4a\	.	4r	.	.	.
16F\	.	16c\	.	16a/	.	16aa\	.	.	.	.	.	.	.	.	.	.	16a\	.	.	.	.	.	.	.	.	.
16F\	.	16d\	.	16a/	.	16gg\	.	.	.	.	.	.	.	.	.	.	16g\	.	.	.	.	.	.	.	.	.
*	*	*	*	*	*	*	*	*	*	*	*	*	*	*	*	*	*custos	*	*	*	*	*	*	*	*	*
!	!	!	!	!	!	!LO:SIC:v:s=16ff\JJ	!	!	!	!	!	!	!	!	!	!	!	!	!	!	!	!	!	!	!	!
16F\JJ	.	16d\JJ	.	16a/JJ	.	16ff#\JJ	.	.	.	.	.	.	.	.	.	.	16f\JJ	.	.	.	.	.	.	.	.	.
*	*	*	*	*Xtremolo	*	*	*	*	*	*	*	*	*	*	*	*	*	*	*tremolo	*	*tremolo	*	*	*	*	*
!LO:TX:t=P:problem=mixed beam	!	!	!	!	!	!	!	!	!	!	!	!	!	!	!	!	!LO:LB:g=original	!	!	!	!	!	!	!	!	!LO:DY:t=f.
8G\L	6 4	16e\LL	.	(16cc/LL	.	(16ee\LL	.	.	.	.	.	.	.	.	.	.	16e\LL	.	8g\L	.	8g\L	.	4cc\	.	4eenX\	f
.	.	16e\	.	16g/)	.	16gg\)	.	.	.	.	.	.	.	.	.	.	16g\J	.	.	.	.	.	.	.	.	.
8G\	.	16g\	.	16e|/	.	16cc|\	.	.	.	.	.	.	.	.	.	.	8cc\J	.	8g\	.	8g\	.	.	.	.	.
.	.	16g\JJ	.	16e|/JJ	.	16cc|\JJ	.	.	.	.	.	.	.	.	.	.	.	.	.	.	.	.	.	.	.	.
8GG/	n	(16Bn\LL	.	(16f/LL	.	(16dd\LL	.	.	.	.	.	.	.	.	.	.	(16dd\LL	.	8g\	.	8g\	.	4bX\	.	4dd\	.
!	!	!	!	!	!	!LO:SIC:v:s=16ff\)	!	!	!	!	!	!	!	!	!	!	!	!	!	!	!	!	!	!	!	!
.	.	16d\)	.	16d/)	.	16ff#\)	.	.	.	.	.	.	.	.	.	.	16ff\	.	.	.	.	.	.	.	.	.
8GG/J	.	16d|\	.	16f|/	.	16b-|\	.	.	.	.	.	.	.	.	.	.	16bn\	.	8g\J	.	8g\J	.	.	.	.	.
.	.	16d|\JJ	.	16f|/JJ	.	16b-|\JJ	.	.	.	.	.	.	.	.	.	.	16dd\JJ)	.	.	.	.	.	.	.	.	.
*	*	*	*	*	*	*	*	*	*	*	*	*	*	*	*	*	*	*	*Xtremolo	*	*Xtremolo	*	*	*	*	*
!	!	!	!	!	!	!LO:LB:g=original	!	!	!	!	!	!	!	!	!	!	!	!	!	!	!	!	!	!	!	!
=23	=23	=23	=23	=23	=23	=23	=23	=23	=23	=23	=23	=23	=23	=23	=23	=23	=23	=23	=23	=23	=23	=23	=23	=23	=23	=23
!LO:N:vis=4	!	!	!	!	!	!LO:TX:t=P:problem=mixed beam	!LO:DY:t=f.	!	!	!	!	!	!	!	!	!	!	!	!	!	!	!	!	!	!LO:TX:a:i:t=Solo.	!
8C/	.	8c\	.	8e|/L	.	16cc\LL	f	.	.	.	.	.	.	.	.	.	4cc\	-son	8c/	.	8g\	.	8cc\	.	8cc\L	.
.	.	.	.	.	.	16c/J	.	.	.	.	.	.	.	.	.	.	.	.	.	.	.	.	.	.	.	.
8r	.	8r	.	16e/L	.	8cc\J	.	.	.	.	.	.	.	.	.	.	.	.	8r	.	8r	.	8r	.	16cc\L	.
.	.	.	.	16f/JJ	.	.	.	.	.	.	.	.	.	.	.	.	.	.	.	.	.	.	.	.	16dd\JJ	.
!	!	!	!	!	!	!	!LO:DY:t=p.	!	!	!	!	!	!	!	!	!	!	!	!	!	!	!	!	!	!	!
4r	.	4r	.	16g/LL	.	(16b-X\LL	p	.	.	.	.	.	.	.	.	.	4r	.	4r	.	4r	.	4r	.	16ee\LL	.
.	.	.	.	16f/	.	16a\)	.	.	.	.	.	.	.	.	.	.	.	.	.	.	.	.	.	.	16ff\	.
.	.	.	.	16e/	.	16g|\	.	.	.	.	.	.	.	.	.	.	.	.	.	.	.	.	.	.	16gg\	.
.	.	.	.	16d/JJ	.	16f|\JJ	.	.	.	.	.	.	.	.	.	.	.	.	.	.	.	.	.	.	16aa\JJ	.
8C/	-7 5	8e 8G/	.	(16c/LL	.	(16e/LL	.	.	.	.	.	.	.	.	.	.	2r	.	8c/	.	8g\	.	(16gg\LL	.	16bb-\LL	.
.	.	.	.	16e/)	.	16g/)	.	.	.	.	.	.	.	.	.	.	.	.	.	.	.	.	16ee\JJ)	.	16gg\	.
8r	.	8r	.	16g|/	.	16cc|/	.	.	.	.	.	.	.	.	.	.	.	.	8r	.	8r	.	8r	.	16cc\	.
.	.	.	.	16f|/JJ	.	16cc|/JJ	.	.	.	.	.	.	.	.	.	.	.	.	.	.	.	.	.	.	16dd\JJ	.
4r	.	4r	.	16g/LL	.	16b-X/LL	.	.	.	.	.	.	.	.	.	.	.	.	4r	.	4r	.	4r	.	16ee\LL	.
.	.	.	.	16f/	.	16a/	.	.	.	.	.	.	.	.	.	.	.	.	.	.	.	.	.	.	16ff\	.
.	.	.	.	16e/	.	16g/	.	.	.	.	.	.	.	.	.	.	.	.	.	.	.	.	.	.	16gg\	.
.	.	.	.	16d/JJ	.	16f/JJ	.	.	.	.	.	.	.	.	.	.	.	.	.	.	.	.	.	.	16aa\JJ	.
!	!	!LO:LB:g=original	!	!	!	!	!	!	!	!	!	!	!	!	!	!	!	!	!	!	!	!	!LO:LB:g=original	!	!LO:LB:g=original	!
=24	=24	=24	=24	=24	=24	=24	=24	=24	=24	=24	=24	=24	=24	=24	=24	=24	=24	=24	=24	=24	=24	=24	=24	=24	=24	=24
!	!	!	!	!	!	!	!	!	!	!	!	!	!	!	!	!	!LO:TX:a:t=1.	!	!	!	!	!	!LO:TX:a:i:t=Solo.	!	!	!
8C/	7_ 5_	8e 8G\	.	8c/L	.	(16e/LL	.	1r	.	.	1r	.	.	.	.	.	1r	.	8c/L	.	8g\L	p	8gg\L	.	16bb-\LL	.
.	.	.	.	.	.	16g/)	.	.	.	.	.	.	.	.	.	.	.	.	.	.	.	.	.	.	16ff#X\	.
8r	.	8r	.	16g/L	.	16b-|/	.	.	.	.	.	.	.	.	.	.	.	.	16g/L	.	16b-\L	.	(16ee\L	.	16gg\	.
.	.	.	.	16f/JJ	.	16a|/JJ	.	.	.	.	.	.	.	.	.	.	.	.	16f/JJ	.	16a\JJ	.	16ff#X\JJ)	.	16aa\JJ	.
8C/	.	8c 8C/	.	16e/LL	.	(16g/LL	.	.	.	.	.	.	.	.	.	.	.	.	8c/L	.	8g\L	.	8gg|\L	.	16bb-\LL	.
.	.	.	.	16f#X/	.	16a/)	.	.	.	.	.	.	.	.	.	.	.	.	.	.	.	.	.	.	16ff#\	.
8r	.	8r	.	16g/	.	16b-|/	.	.	.	.	.	.	.	.	.	.	.	.	16g/L	.	16b-\L	.	(16ee\L	.	16gg\	.
*	*	*	*	*custos	*	*	*	*	*	*	*	*	*	*	*	*	*	*	*	*	*	*	*	*	*	*
.	.	.	.	16fn/JJ	.	16a|/JJ	.	.	.	.	.	.	.	.	.	.	.	.	16f/JJ	.	16a\JJ	.	16ff#X\JJ)	.	16aa\JJ	.
!	!	!	!	!LO:LB:g=original	!	!LO:LB:g=original	!LO:DY:t=rf	!	!	!	!	!	!	!	!	!	!	!	!	!	!	!	!	!	!	!
8C/	.	8c 8C/	.	8e|/L	.	8g/L	rf	.	.	.	.	.	.	.	.	.	.	.	8c/	.	8g\	.	16gg|\LL	.	16bb-\LL	.
.	.	.	.	.	.	.	.	.	.	.	.	.	.	.	.	.	.	.	.	.	.	.	16ff|\	.	16aa\	.
8r	x	8r	.	(16e/L	.	16g/L	.	.	.	.	.	.	.	.	.	.	.	.	8r	.	8r	.	16ee|\	.	16gg\	.
.	.	.	.	16f/JJ)	.	16a/JJ	.	.	.	.	.	.	.	.	.	.	.	.	.	.	.	.	16dd|\JJ	.	16ff\JJ	.
!	!	!	!	!	!	!	!LO:HP:t=cres.	!	!	!	!	!	!	!	!	!	!	!	!	!	!	!	!	!	!	!
4r	.	4r	.	16g/LL	.	16b-\LL	<	.	.	.	.	.	.	.	.	.	.	.	4r	.	4r	.	16cc|\LL	.	16ee\LL	.
.	.	.	.	16a/	.	16cc\	.	.	.	.	.	.	.	.	.	.	.	.	.	.	.	.	16b-|\	.	16dd\	.
.	.	.	.	16b-/	.	16dd\	.	.	.	.	.	.	.	.	.	.	.	.	.	.	.	.	16a|\	.	16cc\	.
.	.	.	.	16g/JJ	.	16ee\JJ	.	.	.	.	.	.	.	.	.	.	.	.	.	.	.	.	16g|\JJ	.	16b-\JJ	.
!	!	!	!	!	!	!	!	!	!	!	!LO:LB:g=original	!	!	!	!	!	!	!	!LO:LB:g=original	!	!	!	!	!	!	!
=25	=25	=25	=25	=25	=25	=25	=25	=25	=25	=25	=25	=25	=25	=25	=25	=25	=25	=25	=25	=25	=25	=25	=25	=25	=25	=25
*	*	*	*	*	*	*	*	*	*	*	*	*	*	*	*	*	*	*	*tremolo	*	*tremolo	*	*	*	*	*
!LO:TX:a:i:t=Tutti.	!	!	!	!	!	!	!	!LO:TX:a:i:t=Tutti	!	!LO:DY:a	!LO:TX:a:i:t=Tutti	!	!LO:DY:a	!LO:TX:a:i:t=Tutti.	!	!	!LO:TX:a:i:t=Tutti	!	!	!	!	!	!	!	!LO:TX:a:i:t=Tutti.	!
8F\L	.	8fL 8c\	f	8aL 8f\	.	8ffL 8a\	f	4.F\	Ky-	f	4.c\	Ky-	f	4.a\	Ky-	.	4.ff\	Ky-	8A/L	.	8f\L	f	8a\L	f	8a\L	.
8F\	.	8f 8c\	.	8a 8f\	f	8ff 8a\	.	.	.	.	.	.	.	.	.	.	.	.	8A/	.	8f\	.	8a\	.	8ff\	.
8C\	.	8f 8c\	.	8a 8f\	.	8ff 8a\	.	.	.	.	.	.	.	.	.	.	.	.	8A/	.	8f\	.	8a\	.	8ff\	.
8AA\J	.	8fJ 8c\	.	8aJ 8f\	.	8ffJ 8a\	.	8F\	-ri-	.	8c\	-ri-	.	8a\	-ri-	.	8ff\	-ri-	8A/J	.	8f\J	.	8a\J	.	8ff\J	.
*	*	*	*	*	*	*	*	*	*	*	*	*	*	*	*	*	*	*	*Xtremolo	*	*Xtremolo	*	*	*	*	*
4FF/	.	4f 4c\	.	4a 4f\	.	8ffL 8a\	.	4F\	-e	.	4c\	-e	.	4a\	-e	.	4ff\	-e	4A/	.	4f\	.	4a\	.	4ff\	.
.	.	.	.	.	.	32qqgg/LLL	.	.	.	.	.	.	.	.	.	.	.	.	.	.	.	.	.	.	.	.
.	.	.	.	.	.	32qqff/	.	.	.	.	.	.	.	.	.	.	.	.	.	.	.	.	.	.	.	.
.	.	.	.	.	.	32qqee/JJJ	.	.	.	.	.	.	.	.	.	.	.	.	.	.	.	.	.	.	.	.
!	!	!	!	!	!	!	!LO:DY:t=p.	!	!	!	!	!	!	!	!	!	!	!	!	!	!	!	!	!	!	!
.	.	.	.	.	.	16.ffT\L	p	.	.	.	.	.	.	.	.	.	.	.	.	.	.	.	.	.	.	.
.	.	.	.	.	.	32gg\JJk	.	.	.	.	.	.	.	.	.	.	.	.	.	.	.	.	.	.	.	.
4r	.	4r	.	4r	.	16aa\LL	.	4r	.	.	4r	.	.	4r	.	.	4r	.	4r	.	4r	.	4r	.	4r	.
.	.	.	.	.	.	16ee\	.	.	.	.	.	.	.	.	.	.	.	.	.	.	.	.	.	.	.	.
.	.	.	.	.	.	16ff\	.	.	.	.	.	.	.	.	.	.	.	.	.	.	.	.	.	.	.	.
.	.	.	.	.	.	16dd\JJ	.	.	.	.	.	.	.	.	.	.	.	.	.	.	.	.	.	.	.	.
!LO:LB:g=original	!	!	!	!	!	!	!	!	!	!	!	!	!	!	!	!	!	!	!	!	!LO:LB:g=original	!	!	!	!	!
=26	=26	=26	=26	=26	=26	=26	=26	=26	=26	=26	=26	=26	=26	=26	=26	=26	=26	=26	=26	=26	=26	=26	=26	=26	=26	=26
*	*	*	*	*	*	*	*	*	*	*	*	*	*	*	*	*	*	*	*tremolo	*	*tremolo	*	*	*	*	*
8E\L	6_ 5_	8eL 8c\	.	8b-L 8g\	.	8cc\L	.	4.E\	Ky-	.	4.c\	Ky-	.	4.g\	Ky-	.	4.b-\	Ky-	8c/L	.	8g\L	.	8cc\L	.	8cc\L	.
8E\	.	8e 8c\	.	8b- 8g\	.	8cc 8g\	f	.	.	.	.	.	.	.	.	.	.	.	8c/	.	8g\	.	8gg\	.	8bb-\	.
8E\	.	8e 8c\	.	8b- 8g\	.	8cc 8g\	.	.	.	.	.	.	.	.	.	.	.	.	8c/	.	8g\	.	8gg\	.	8bb-\	.
8E\J	.	8eJ 8c\	.	8b-J 8g\	.	8ccJ 8g\	.	8E\	-ri-	.	8c\	-ri-	.	8g\	-ri-	.	8b-\	-ri-	8c/J	.	8g\J	.	8gg\J	.	8bb-\J	.
*	*	*	*	*	*	*	*	*	*	*	*	*	*	*	*	*	*	*	*Xtremolo	*	*Xtremolo	*	*	*	*	*
4E\	.	4e 4c\	.	4b- 4g\	.	16cc\LL	.	4E\	-e	.	4c\	-e	.	4g\	-e	.	4b-\	-e	4c/	.	4g\	.	4gg\	.	4bb-\	.
.	.	.	.	.	.	32ee\L	.	.	.	.	.	.	.	.	.	.	.	.	.	.	.	.	.	.	.	.
.	.	.	.	.	.	32gg\J	.	.	.	.	.	.	.	.	.	.	.	.	.	.	.	.	.	.	.	.
.	.	.	.	.	.	16bb-\	.	.	.	.	.	.	.	.	.	.	.	.	.	.	.	.	.	.	.	.
.	.	.	.	.	.	16ff#X\JJ	.	.	.	.	.	.	.	.	.	.	.	.	.	.	.	.	.	.	.	.
8r	x	4r	.	4r	.	16gg\LL	.	4r	.	.	4r	.	.	4r	.	.	4r	.	8r	.	8r	.	8r	.	4r	.
.	.	.	.	.	.	16ee\	.	.	.	.	.	.	.	.	.	.	.	.	.	.	.	.	.	.	.	.
8E\	6 5	.	.	.	.	16cc\	.	.	.	.	.	.	.	.	.	.	.	.	8c/	.	8g\	.	8cc\	.	.	.
.	.	.	.	.	.	16b-X\JJ	.	.	.	.	.	.	.	.	.	.	.	.	.	.	.	.	.	.	.	.
=27	=27	=27	=27	=27	=27	=27	=27	=27	=27	=27	=27	=27	=27	=27	=27	=27	=27	=27	=27	=27	=27	=27	=27	=27	=27	=27
*	*	*	*	*	*	*	*	*	*	*	*	*	*	*	*	*	*	*	*	*	*tremolo	*	*	*	*	*
!	!	!	!	!	!	!	!	!	!	!	!	!	!	!	!	!	!	!	!LO:TX:t=P:problem=mixed beam	!	!	!	!	!	!	!
8F\L	.	8f\L	.	(16a\LL	.	(16a\LL	.	8.F\	Ky-	.	8.c\	Ky-	.	8.f\	Ky-	.	8.a\	Ky-	8f\L	.	8f\L	.	2a\	.	2ff\	.
.	.	.	.	16cc\)	.	16ff\)	.	.	.	.	.	.	.	.	.	.	.	.	.	.	.	.	.	.	.	.
8F\	.	8f\	.	16gg|\	.	16ff|\	.	.	.	.	.	.	.	.	.	.	.	.	8F/	.	8f\	.	.	.	.	.
.	.	.	.	16gg|\JJ	.	16ff|\JJ	.	16F\	-ri-	.	16c\	-ri-	.	16f\	-ri-	.	16a\	-ri-	.	.	.	.	.	.	.	.
!	!	!	!	!LO:TX:t=P:problem=mixed beam	!	!	!	!	!	!	!	!	!	!	!	!	!	!	!	!	!	!	!	!	!	!
8E-X\	4 2	8f 8A\	.	16ff\LL	.	16ff\LL	.	8E-X\	-e	.	8c\	-e	.	8f\	-e	.	8a\	-e	8F/	.	8f\	.	.	.	.	.
.	.	.	.	16f|/	.	16ffsS\	.	.	.	.	.	.	.	.	.	.	.	.	.	.	.	.	.	.	.	.
8E-\J	.	8fJ 8A\	.	16g|/	.	16gg\	.	8E-\	e-	.	8c\	e-	.	8f\	e-	.	8a\	e-	8F/J	.	8f\J	.	.	.	.	.
*	*	*	*	*	*	*custos	*	*	*	*	*	*	*	*	*	*	*	*	*	*	*	*	*	*	*	*
.	.	.	.	16a|/JJ	.	16aa\JJ	.	.	.	.	.	.	.	.	.	.	.	.	.	.	.	.	.	.	.	.
*	*	*	*	*tremolo	*	*	*	*	*	*	*	*	*	*	*	*	*	*	*	*	*Xtremolo	*	*	*	*	*
!	!	!	!	!	!	!LO:LB:g=original	!	!	!	!	!	!	!	!	!	!	!LO:LB:g=original	!	!	!	!	!	!	!	!	!
8D\L	6	8fL 8B-\	.	16b-\LL	.	(16bb-\LL	.	(4D\	-ley-	.	2d\	-ley-	.	2f\	-ley-	.	(4b-\	-ley-	4F/	.	4.f\	.	4b-\	.	2ff\	.
.	.	.	.	16b-\	.	16b-\)	.	.	.	.	.	.	.	.	.	.	.	.	.	.	.	.	.	.	.	.
8D\	.	8f 8B-\	.	16b-\	.	16bb-|\	.	.	.	.	.	.	.	.	.	.	.	.	.	.	.	.	.	.	.	.
.	.	.	.	16b-\JJ	.	16bb-|\JJ	.	.	.	.	.	.	.	.	.	.	.	.	.	.	.	.	.	.	.	.
8G\	7 n	8f 8G\	.	16bn\LL	.	(16bbn\LL	.	4G\)	.	.	.	.	.	.	.	.	4bn\)	.	8r	.	.	.	4bX\	.	.	.
.	.	.	.	16b\	.	16bny\)	.	.	.	.	.	.	.	.	.	.	.	.	.	.	.	.	.	.	.	.
8G\J	.	8fJ 8G\	.	16b\	.	16bb|\	.	.	.	.	.	.	.	.	.	.	.	.	8g\	.	8g\	.	.	.	.	.
.	.	.	.	16b\JJ	.	16bb|\JJ	.	.	.	.	.	.	.	.	.	.	.	.	.	.	.	.	.	.	.	.
*	*	*	*	*Xtremolo	*	*	*	*	*	*	*	*	*	*	*	*	*	*	*	*	*	*	*	*	*	*
=28	=28	=28	=28	=28	=28	=28	=28	=28	=28	=28	=28	=28	=28	=28	=28	=28	=28	=28	=28	=28	=28	=28	=28	=28	=28	=28
8C\L	8 3	8eL 8c\	.	(16cc/LL	.	(16ccc\LL	.	4C/	-son	.	4c\	-son	.	4e\	-son	.	4cc\	-son	4c/	.	4g\	.	8b-\L	.	8ee\L	.
.	.	.	.	16g/)	.	16gg\)	.	.	.	.	.	.	.	.	.	.	.	.	.	.	.	.	.	.	.	.
8C\	.	8e 8c\	.	16g|/	.	16gg|\	.	.	.	.	.	.	.	.	.	.	.	.	.	.	.	.	8ee\	.	8gg\J	.
.	.	.	.	16g|/JJ	.	16gg|\JJ	.	.	.	.	.	.	.	.	.	.	.	.	.	.	.	.	.	.	.	.
8C\	-7 5	8e 8c\	.	(16b-X/LL	.	(16bb-X\LL	.	4C/	e-	.	4e\	e-	.	4g\	e-	.	4b-X\	e-	8g\L	.	8b-\L	.	8gg\	.	4bb-\	.
.	.	.	.	16g/)	.	16gg\)	.	.	.	.	.	.	.	.	.	.	.	.	.	.	.	.	.	.	.	.
*	*	*custos	*	*	*	*	*	*	*	*	*	*	*	*	*	*	*	*	*	*	*	*	*	*	*	*
8C\J	.	8eJ 8c\	.	16g|/	.	16gg|\	.	.	.	.	.	.	.	.	.	.	.	.	8c\J	.	8g\J	.	8ee\J	.	.	.
.	.	.	.	16g|/JJ	.	16gg|\JJ	.	.	.	.	.	.	.	.	.	.	.	.	.	.	.	.	.	.	.	.
!	!	!LO:LB:g=original	!	!	!	!	!	!	!	!	!	!	!	!	!	!	!	!	!	!	!	!	!	!	!	!
8C\L	6 4	8fL 8c\	.	(16g#X/LL	.	(16gg#X\LL	.	2C/	-ley-	.	(4f\	-ley-	.	2f\	-ley-	.	(4a\	-ley-	4f\	.	4a\	.	8ff\L	.	8aa\L	.
.	.	.	.	16a/)	.	16aa\)	.	.	.	.	.	.	.	.	.	.	.	.	.	.	.	.	.	.	.	.
8C\	.	8f 8c\	.	16a|/	.	16aa|\	.	.	.	.	.	.	.	.	.	.	.	.	.	.	.	.	8a\	.	16ff\L	.
.	.	.	.	16a|/JJ	.	16aa|\JJ	.	.	.	.	.	.	.	.	.	.	.	.	.	.	.	.	.	.	16dd\JJ	.
!	!	!	!	!	!	!	!	!	!	!	!	!	!	!	!	!	!	!	!	!	!	!	!	!	!LO:LB:g=original	!
8C\	n7 2	8d 8G\	.	(16dd\LL	.	(16ccc\LL	.	.	.	.	4d\)	.	.	.	.	.	4bn\)	.	8g\L	.	8g\L	.	8g\	.	4bX\	.
.	.	.	.	16ff\)	.	16bbn\)	.	.	.	.	.	.	.	.	.	.	.	.	.	.	.	.	.	.	.	.
8C\J	.	8dJ 8G\	.	16ff|\	.	16bb|\	.	.	.	.	.	.	.	.	.	.	.	.	8g\J	.	8g\J	.	8f\J	.	.	.
.	.	.	.	16ff|\JJ	.	16bb|\JJ	.	.	.	.	.	.	.	.	.	.	.	.	.	.	.	.	.	.	.	.
!	!	!	!	!	!	!	!	!LO:LB:g=original	!	!	!	!	!	!LO:LB:g=original	!	!	!	!	!	!	!	!	!LO:LB:g=original	!	!	!
=29	=29	=29	=29	=29	=29	=29	=29	=29	=29	=29	=29	=29	=29	=29	=29	=29	=29	=29	=29	=29	=29	=29	=29	=29	=29	=29
!	!	!	!	!	!	!	!	!	!	!	!	!	!	!	!	!	!	!	!	!	!	!	!LO:TX:t=P:problem=mixed beam	!	!	!
8C\L	8_ 3_	8eL 8G\	.	(16ee\LL	.	16ccc\LL	.	4C/	-son	.	4c\	-son	.	4e\	-son	.	4cc\	-son	4c/	.	4g\	.	8e/L	.	8cc\L	.
.	.	.	.	16ff#X\	.	(16ff#X\	.	.	.	.	.	.	.	.	.	.	.	.	.	.	.	.	.	.	.	.
8C\	.	8e 8G\	.	16gg\	.	16gg\)	.	.	.	.	.	.	.	.	.	.	.	.	.	.	.	.	8cc\	.	8ee\	.
.	.	.	.	16dd#X\JJ)	.	(16dd#X\JJ	.	.	.	.	.	.	.	.	.	.	.	.	.	.	.	.	.	.	.	.
8C\	.	8e 8G\	.	(16ee\LL	.	16ee\LL)	.	8C/	Ky-	.	8G/	Ky-	.	8e\	Ky-	.	8cc\	Ky-	8c/L	.	8g\L	.	8ee\	.	8gg\	.
.	.	.	.	16cc\	.	(16cc\	.	.	.	.	.	.	.	.	.	.	.	.	.	.	.	.	.	.	.	.
*	*	*	*	*	*	*	*	*	*	*	*custos	*	*	*	*	*	*	*	*	*	*	*	*	*	*	*
8C\J	-7 5	8eJ 8G\	.	16ee\	.	16ee\)	.	8C/	-ri-	.	8G/	-ri-	.	8e\	-ri-	.	8cc\	-ri-	8c/J	.	8g\J	.	8ee\J	.	8gg\J	.
.	.	.	.	16gg\JJ)	.	16gg|\JJ	.	.	.	.	.	.	.	.	.	.	.	.	.	.	.	.	.	.	.	.
!	!	!	!	!	!	!	!	!	!	!	!LO:LB:g=original	!	!	!	!	!	!	!	!	!	!	!	!	!	!	!
8C\L	.	8gL 8c\	.	(16bb-X\LL	.	16bb-X\LL	.	4.C/	-e	.	4.c\	-e	.	4.g\	-e	.	4.b-X\	-e	4c/	.	4g\	.	8gg\L	.	8bb-\L	.
.	.	.	.	16ff#X\	.	(16ff#X\	.	.	.	.	.	.	.	.	.	.	.	.	.	.	.	.	.	.	.	.
8C\	.	8g 8c\	.	16gg\)	.	16gg\)	.	.	.	.	.	.	.	.	.	.	.	.	.	.	.	.	8ee\	.	8gg\	.
.	.	.	.	16dd#X\JJ	.	(16dd#X\JJ	.	.	.	.	.	.	.	.	.	.	.	.	.	.	.	.	.	.	.	.
8C\	.	8g 8c\	.	(16ee\LL	.	16ee\LL)	.	.	.	.	.	.	.	.	.	.	.	.	8g\L	.	8a\L	.	8b-\	.	8ee\	.
.	.	.	.	16cc\	.	(16cc\	.	.	.	.	.	.	.	.	.	.	.	.	.	.	.	.	.	.	.	.
8E\J	6 5	8gJ 8c\	.	16g\	.	16gg\)	.	8E\	e-	.	8c\	e-	.	8g\	e-	.	16cc\LL	e-	8g\J	.	8a\J	.	8g\J	.	8b-\J	.
.	.	.	.	16b-X\JJ)	.	16b-|\JJ	.	.	.	.	.	.	.	.	.	.	16b-\JJ	.	.	.	.	.	.	.	.	.
!	!	!	!	!	!	!LO:LB:g=original	!	!	!	!	!	!	!	!	!	!	!	!	!LO:LB:g=original	!	!	!	!	!	!	!
=30	=30	=30	=30	=30	=30	=30	=30	=30	=30	=30	=30	=30	=30	=30	=30	=30	=30	=30	=30	=30	=30	=30	=30	=30	=30	=30
!LO:TX:t=P:problem=mixed beam	!	!	!	!	!	!	!	!	!	!	!	!	!	!	!	!	!	!	!	!	!	!	!	!	!	!
8F\L	.	16f\LL	.	(16a\LL	.	(16a\LL	.	(4F\	-ley-	.	2c\	-ley-	.	2f\	-ley-	.	4a\	-ley-	4f\	.	4a\	.	(8f\L	.	8a\L	.
.	.	16c\	.	16cc\)	.	16cc\	.	.	.	.	.	.	.	.	.	.	.	.	.	.	.	.	.	.	.	.
8F\	.	16f\	.	16ff|\	.	16ff\	.	.	.	.	.	.	.	.	.	.	.	.	.	.	.	.	8a\J)	.	8aa\J	.
.	.	16c\JJ	.	16aa|\JJ	.	16aa\JJ)	.	.	.	.	.	.	.	.	.	.	.	.	.	.	.	.	.	.	.	.
8AA/	6	16A/LL	.	(16gg\LL	.	(16gg\LL	.	4A\)	.	.	.	.	.	.	.	.	4b-\	.	8F/L	.	8f\L	.	4cc\	.	4ff\	.
.	.	16c/	.	16ff\)	.	16ff\)	.	.	.	.	.	.	.	.	.	.	.	.	.	.	.	.	.	.	.	.
8A\J	.	16A/	.	16ff|\	.	16ff|\	.	.	.	.	.	.	.	.	.	.	.	.	8F/J	.	8f\J	.	.	.	.	.
.	.	16c/JJ	.	16ff|\JJ	.	16ff|\JJ	.	.	.	.	.	.	.	.	.	.	.	.	.	.	.	.	.	.	.	.
8BB-\L	.	16B-/LL	.	(16gg\LL	.	(16gg\LL	.	4B-\	-son	.	4d\	-son	.	4f\	-son	.	4dd\	-son	2F/	.	2f\	.	4dd\	.	2ff\	.
.	.	16d/	.	16ff\)	.	16ff\)	.	.	.	.	.	.	.	.	.	.	.	.	.	.	.	.	.	.	.	.
8B-\	.	16B-/	.	16ff|\	.	16ff|\	.	.	.	.	.	.	.	.	.	.	.	.	.	.	.	.	.	.	.	.
.	.	16d/JJ	.	16ff|\JJ	.	16ff|\JJ	.	.	.	.	.	.	.	.	.	.	.	.	.	.	.	.	.	.	.	.
!	!	!	!	!	!	!	!LO:DY:t=f.	!	!	!	!	!	!	!	!	!	!	!	!	!	!	!	!	!	!	!
8C\	6 4	16c\LL	.	(16gg\LL	.	(16aa\LL	f	4c\	e-	.	4e-X\	e-	.	4f\	e-	.	4a\	e-	.	.	.	.	4a\	.	.	.
.	.	16e-X\	.	16ff\)	.	16ff\)	.	.	.	.	.	.	.	.	.	.	.	.	.	.	.	.	.	.	.	.
!	!	!	!	!	!	!	!LO:DY:t=p.	!	!	!	!	!	!	!	!	!	!	!	!	!	!	!	!	!	!	!
8c\J	.	16c\	.	16ff|\	.	16ff|\	p	.	.	.	.	.	.	.	.	.	.	.	.	.	.	.	.	.	.	.
.	.	16e-\JJ	.	16ff|\JJ	.	16ff|\JJ	.	.	.	.	.	.	.	.	.	.	.	.	.	.	.	.	.	.	.	.
!LO:LB:g=original	!	!	!	!LO:LB:g=original	!	!	!	!	!	!	!	!	!	!	!	!	!	!	!	!	!LO:LB:g=original	!	!	!	!	!
=31	=31	=31	=31	=31	=31	=31	=31	=31	=31	=31	=31	=31	=31	=31	=31	=31	=31	=31	=31	=31	=31	=31	=31	=31	=31	=31
!	!	!	!	!	!	!	!LO:DY:t=f.	!	!	!	!	!	!	!	!	!	!	!	!	!	!	!	!	!	!	!
8D\L	6_	16d\LL	.	(16gg\LL	.	(16aa\LL	f	4d\	-ley-	.	(4d\	-ley-	.	2f\	-ley-	.	(4b-\	-ley-	2F/	.	2f\	.	4b-\	.	2.ff\	.
.	.	16B-\	.	16ff\)	.	16ff\)	.	.	.	.	.	.	.	.	.	.	.	.	.	.	.	.	.	.	.	.
!	!	!	!	!	!	!	!LO:DY:t=p.	!	!	!	!	!	!	!	!	!	!	!	!	!	!	!	!	!	!	!
8d\	.	16d\	.	16ff|\	.	16ff|\	p	.	.	.	.	.	.	.	.	.	.	.	.	.	.	.	.	.	.	.
.	.	16B-\JJ	.	16ff|\JJ	.	16ff|\JJ	.	.	.	.	.	.	.	.	.	.	.	.	.	.	.	.	.	.	.	.
!	!	!	!	!	!	!	!LO:DY:t=f.	!	!	!	!	!	!	!	!	!	!	!	!	!	!	!	!	!	!	!
8D\	.	16Bn\LL	.	(16gg\LL	.	(16gg\LL	f	8D\	-son	.	4G/)	.	.	.	.	.	4bn\)	.	.	.	.	.	4bX\	.	.	.
.	.	16d\	.	16ff\)	.	16ff\)	.	.	.	.	.	.	.	.	.	.	.	.	.	.	.	.	.	.	.	.
!	!	!	!	!	!	!	!LO:DY:t=p.	!	!	!	!	!	!	!	!	!	!	!	!	!	!	!	!	!	!	!
8d\J	.	16B\	.	16ff|\	.	16ff|\	p	8D\	e-	.	.	.	.	.	.	.	.	.	.	.	.	.	.	.	.	.
.	.	16d\JJ	.	16ff|\JJ	.	16ff|\JJ	.	.	.	.	.	.	.	.	.	.	.	.	.	.	.	.	.	.	.	.
!	!	!	!	!	!	!	!LO:DY:t=f.	!	!	!	!	!	!	!	!	!	!	!	!	!	!	!	!	!	!	!
8C\L	6 4	16A\LL	.	(16gg\LL	.	(16aa\LL	f	4C/	-ley-	.	4A/	-son	.	4f\	-son	.	4cc\	-son	2F/	.	2f\	.	4cc\	.	.	.
.	.	16c\	.	16ff\)	.	16ff\)	.	.	.	.	.	.	.	.	.	.	.	.	.	.	.	.	.	.	.	.
!	!	!	!	!	!	!	!LO:DY:t=p.	!	!	!	!	!	!	!	!	!	!	!	!	!	!	!	!	!	!	!
8c\	.	16A\	.	16ff|\	.	16ff|\	p	.	.	.	.	.	.	.	.	.	.	.	.	.	.	.	.	.	.	.
.	.	16c\JJ	.	16ff|\JJ	.	16ff|\JJ	.	.	.	.	.	.	.	.	.	.	.	.	.	.	.	.	.	.	.	.
8BBn\	6 5	16G#X/LL	.	(16dd\LL	.	(16ddd\LL	.	4BBn/	-son	.	4f\	e-	.	4a-X\	e-	.	4dd\	e-	.	.	.	.	4ff\	.	4aa-X\	.
.	.	16Bn/	.	16ff\)	.	16ff\)	.	.	.	.	.	.	.	.	.	.	.	.	.	.	.	.	.	.	.	.
8Bny\J	.	16d/	.	16ff|\	.	16ff|\	.	.	.	.	.	.	.	.	.	.	.	.	.	.	.	.	.	.	.	.
.	.	16G#/JJ	.	16ff|\JJ	.	16ff|\JJ	.	.	.	.	.	.	.	.	.	.	.	.	.	.	.	.	.	.	.	.
!	!	!LO:LB:g=original	!	!	!	!	!	!	!	!	!	!	!	!	!	!	!	!	!	!	!	!	!	!	!	!
=32	=32	=32	=32	=32	=32	=32	=32	=32	=32	=32	=32	=32	=32	=32	=32	=32	=32	=32	=32	=32	=32	=32	=32	=32	=32	=32
!LO:TX:t=P:problem=mixed beam	!	!	!	!LO:TX:t=P:problem=mixed beam	!	!	!	!	!	!	!	!	!	!	!	!	!	!	!	!	!	!	!	!	!	!
8c\L	6_ 4_	8A/L	.	8ff\L	.	(16ff\LL	f	8.C/	Ky-	.	(4f\	-ley-	.	(4an\	-ley-	.	4cc\	-ley-	4f\	.	4a\	.	8ff\L	.	8aan\L	.
.	.	.	.	.	.	16ccc\)	.	.	.	.	.	.	.	.	.	.	.	.	.	.	.	.	.	.	.	.
8C/	.	8f 8A/	.	8a 8f/	.	16bb-|\	.	.	.	.	.	.	.	.	.	.	.	.	.	.	.	.	8a\	.	8ff\	.
.	.	.	.	.	.	16aa|\JJ	.	16C/	-ri-	.	.	.	.	.	.	.	.	.	.	.	.	.	.	.	.	.
*	*	*	*	*	*	*	*	*	*	*	*	*	*	*	*	*	*custos	*	*	*	*	*	*	*	*	*
8C/	.	8f 8A/	.	8a 8f/	.	16gg\LL	.	8C/	-e	.	4c\)	.	.	4f\	.	.	4a\	.	8f\L	.	8a\L	.	8cc\	.	8bb-\	.
.	.	.	.	.	.	16ff\	.	.	.	.	.	.	.	.	.	.	.	.	.	.	.	.	.	.	.	.
8CJ	.	8fJ 8A/	.	8aJ 8f/	.	16ee\	.	8C/	e-	.	.	.	.	.	.	.	.	.	8f\J	.	8a\J	.	8a\J	.	8gg\J	.
.	.	.	.	.	.	16dd\JJ	.	.	.	.	.	.	.	.	.	.	.	.	.	.	.	.	.	.	.	.
*	*	*	*	*	*	*	*	*	*	*	*	*	*	*	*	*	*	*	*	*	*	*	*tremolo	*	*	*
!	!	!	!	!	!	!LO:TX:t=P:problem=mixed beam	!	!	!	!	!	!	!	!	!	!	!LO:LB:g=original	!	!	!	!	!	!	!	!	!
8C\L	7 5	8gL 8c\	.	8b-L 8g\	.	8cc|\L	.	2C/	-ley-	.	2c\	.	.	2e\)	.	.	(4g\	.	4c/	.	4g\	.	8b-\L	.	8ee\L	.
8C\	.	8g 8c\	.	8ee 8b-\	.	8bb-\	.	.	.	.	.	.	.	.	.	.	.	.	.	.	.	.	8b-\	.	8ee\	.
8C\	.	8g 8c\	.	8ee 8b-\	.	8c/	.	.	.	.	.	.	.	.	.	.	8cc\L	.	8c/L	.	8g\L	.	8b-\	.	8ee\	.
8C\J	.	8gJ 8c\	.	8eeJ 8b-\	.	8eeJ 8b-\	.	.	.	.	.	.	.	.	.	.	8b-\J)	.	8c/J	.	8g\J	.	8b-\J	.	8ee\J	.
*	*	*	*	*	*	*	*	*	*	*	*	*	*	*	*	*	*	*	*	*	*	*	*Xtremolo	*	*	*
!	!	!	!	!	!	!LO:LB:g=original	!	!	!	!	!	!	!	!	!	!	!	!	!	!	!	!	!	!	!	!
=33	=33	=33	=33	=33	=33	=33	=33	=33	=33	=33	=33	=33	=33	=33	=33	=33	=33	=33	=33	=33	=33	=33	=33	=33	=33	=33
8F\	8_ 3_	8f 8c\	.	8ff 8a\	.	8ff 8a\	.	4F\	-son	.	4c\	-son	.	4f\	-son	.	4a\	-son	8A/	.	8f\	.	8a\	.	8ff\	.
8r	.	8r	.	8r	.	8r	.	.	.	.	.	.	.	.	.	.	.	.	8r	.	8r	.	8r	.	8r	.
8F\	.	8c 8F\	.	8ff 8a\	.	8ff 8a\	.	4r	.	.	4r	.	.	4r	.	.	4r	.	8A/	.	8f\	.	8a\	.	8ff\	.
8r	x	8r	.	8r	.	8r	.	.	.	.	.	.	.	.	.	.	.	.	8r	.	8r	.	8r	.	8r	.
!	!	!	!	!	!	!	!	!LO:TX:a:t=1/2	!	!	!	!	!	!	!	!	!	!	!	!	!	!	!	!	!	!
4FF/	.	8c 8F\	.	4ff 4a\	.	4ff 4a\	.	2r	.	.	2r	.	.	2r	.	.	2r	.	4A/	.	4f\	.	4a\	.	4ff\	.
.	.	8r	.	.	.	.	.	.	.	.	.	.	.	.	.	.	.	.	.	.	.	.	.	.	.	.
!	!	!	!	!	!	!LO:TX:b:i:t=Verte	!	!	!	!	!	!	!	!	!	!	!	!	!	!	!	!	!	!	!	!
4r	.	4r	.	4r	.	4r	.	.	.	.	.	.	.	.	.	.	.	.	4r	.	4r	.	4r	.	4r	.
==	==	==	==	==	==	==	==	==	==	==	==	==	==	==	==	==	==	==	==	==	==	==	==	==	==	==
*-	*-	*-	*-	*-	*-	*-	*-	*-	*-	*-	*-	*-	*-	*-	*-	*-	*-	*-	*-	*-	*-	*-	*-	*-	*-	*-
!!!system-decoration: [(g1)][(g2)][(g3)][(g4)]<s12>
!!!RDF**kern: > = above
!!!RDF**kern: < = below
!!!RDF**kern: | = vertical stroke
!!!RDF**dynam: rf = "rf."
!!!RDF**dynam: f = "for."
!!!ENC: Krzysztof Stępień
!!!END: 2020-09-15
!!!ENC: Andrzej Kubiczek
!!!END: 2022-01-30
